!!!!SEGMENT: pl-wtm--r-2026--003_smietanski-emil-wladyslaw--trio-presto.krn
!!!cenid: 18xx:1979
!!!COM: Śmietański, Emil Władysław
!!!COM-rismid: pe50041781
!!!CDT: 1845-1886
!!!CNT: Polish
!!!OPR: Trio
!!!OTL: Presto
!!!OMV: 003
!!!PDT: 1867
!!!AGN: Secular
!!!SMS-siglum: PL-Wtm
!!!SMS-shelfmark: R 2026
!!!SMS-shelfwork: 001-003 M
!!!SMS-variant:
!!!SMS-altvar:
!!!NIFC-rismid: 1001112990
!!!URL-scan: http://repozytorium.nifc.pl/skany/pl-wtm-nut--r2026
!!!ONB-nifc: UWAGA: części Tria: 1. Molto allegro, 2. Larghetto, 3. Presto
**kern	**kern	**kern	**dynam	**kern	**dynam
*part3	*part3	*part2	*part2	*part1	*part1
*staff4	*staff3	*staff2	*	*staff1	*
*I"Piano.	*I"Piano.	*I"Violoncello.	*	*I"Violine.	*
*I'pf	*I'pf	*I'vlc	*	*I'vl	*
*clefF4	*clefG2	*clefF4	*	*clefG2	*
*k[f#]	*k[f#]	*k[f#]	*	*k[f#]	*
*c:	*c:	*c:	*	*c:	*
*M2/4	*M2/4	*M2/4	*	*M2/4	*
=1	=1	=1	=1	=1	=1
!LO:TX:t=P:problem:mixed beam	!	!	!	!	!
!	!LO:TX:a:B:t=Presto. Finale.	!LO:TX:a:B:t=Presto.	!	!LO:TX:a:B:t=Presto.	!
8GG/L	4b 4g\	4G\	.	4gg^^\	.
.	.	.	f	.	f
!	!	!LO:TX:b:i:t=marcato	!	!	!
8dJ 8G\	.	.	.	.	.
8GG/L	4b 4d\	4G\	.	4dd^^\	.
8BJ 8D/	.	.	.	.	.
=2	=2	=2	=2	=2	=2
!LO:TX:t=P:problem:mixed beam	!	!	!	!	!
8CC/L	8a-XL 8e-X\	4C\	.	8ee-X'\L	.
8cJ 8C\	8a-J 8d\	.	.	8dd'\J	.
!LO:TX:t=P:problem:mixed beam	!	!	!	!	!
8DD/L	4a- 4c\	4D\	.	4cc^^\	.
8cJ 8D\	.	.	.	.	.
=3	=3	=3	=3	=3	=3
8EE-X/L	16gLL 16B/	4E-X\	.	16b'\LL	.
.	16c/	.	.	16cc'\	.
8GJ 8E-X/	16e-X/	.	.	16ee-X'\	.
.	16g/JJ	.	.	16gg'\JJ	.
!LO:TX:t=P:problem:mixed beam	!	!	!	!	!
8EEE-X/L	4b 4g/	4EE-X/	.	4bb^^\	.
8GJ 8E-\	.	.	.	.	.
=4	=4	=4	=4	=4	=4
8BBL 8BBB/	16ddLL 16g\	2GG/	.	(16gg\LL	.
.	16b\	.	.	16bb\)	.
8GGJ 8GGG/	16dd 16b\	.	.	(16ddd\	.
.	16b\JJ	.	.	16bb\JJ)	.
8BBL 8BBB/	4b 4g\	.	.	4gg^^\	.
8DJ 8DD/	.	.	.	.	.
=5	=5	=5	=5	=5	=5
8GL 8GG\	4b 4d\	4B\	.	4dd^^\	.
8BJ 8G\	.	.	.	.	.
8E-XL 8EE-X\	8ccL 8e-X\	8c\L	.	8ee-X'\L	.
8GJ 8GG\	8bJ 8d\	8B\J	.	8dd'\J	.
=6	=6	=6	=6	=6	=6
8GL 8E-X\	16gLL 16B/	4G\	.	16b'\LL	.
.	16c/	.	.	16cc'\	.
8cJ 8C\	16e-X/	.	.	16ee-X'\	.
.	16f#/JJ	.	.	16ff#X'\JJ	.
!LO:TX:t=P:problem:mixed beam	!	!	!	!	!
8dL 8BB\	16g/LL	4G\	.	(16gg\LL	.
.	16d/J	.	.	16dd\J)	.
8BBB/J	8B/J	.	.	8b\J	.
!	!	!	!	!LO:LB:g=original	!
=7	=7	=7	=7	=7	=7
8GL 8GG\	4b 4d\	4B\	.	4dd^^\	.
8BJ 8G\	.	.	.	.	.
8E-XL 8EE-X\	8ccL 8e-X\	8c\L	.	8ee-X'\L	.
8GJ 8GG\	8bJ 8d\	8B\J	.	8dd'\J	.
=8	=8	=8	=8	=8	=8
8GL 8E-X\	16gLL 16B/	4G\	.	16b'\LL	.
.	16c/	.	.	16cc'\	.
8cJ 8C\	16e-X/	.	.	16ee-X'\	.
.	16f#/JJ	.	.	16ff#X'\JJ	.
!LO:TX:t=P:problem:mixed beam	!	!	!	!	!
8dL 8BB\	16g/LL	4G\	.	(16gg\LL	.
.	16d/J	.	.	16dd\J)	.
8BBB/J	8B/J	.	.	8b^^\J	.
!LO:LB:g=original	!LO:LB:g=original	!	!	!	!
=9	=9	=9	=9	=9	=9
4.FF# 4.FFF#/	16f#LL 16B/	4.F#\	.	16b'\LL	.
.	16c#X/	.	.	16cc#X'\	.
.	16d/	.	.	16dd'\	.
.	16f#/JJ	.	.	16ff#'\JJ	.
.	16b\LL	.	.	8bb'\L	.
.	16ddd\	.	.	.	.
8f#\	16dd\	8d'\	.	8ff#'\J	.
.	16bb\JJ	.	.	.	.
!	!	!LO:LB:g=original	!	!	!
=10	=10	=10	=10	=10	=10
8d\L	16b\LL	8B'\L	.	8dd'\L	.
.	16ff#\	.	.	.	.
8B\	16f#\	8F#'\	.	8b'\J	.
.	16dd\JJ	.	.	.	.
8F#\	16d\LL	8D'\	.	8f#'>/L	.
.	16b\JJ	.	.	.	.
8D\J	16B\LL	8BB'\J	.	8d'>/J	.
.	16f#\JJ	.	.	.	.
=11	=11	=11	=11	=11	=11
4BB\	16B/LL	(2FF#/	.	16c#X'/LL	.
.	16G/	.	.	16B'/	.
.	16B/	.	.	16d'/	.
.	16d/JJ	.	.	16e#X'/JJ	.
8AA#X\L	8c#X/L	.	.	8f#'/L	.
8FF#\J	8F#/J	.	.	8A#X'/J	.
=12	=12	=12	=12	=12	=12
(<4BBB\	(4F#< 4D</	4BB/)	.	4B/	.
!LO:TX:a:t=fis.	!	!	!	!	!
8f# 8B\)	8bb 8dd 8b\)	4r	.	4r	.
8r	8r	.	.	.	.
!	!	!	!	!LO:LB:g=original	!
=13	=13	=13	=13	=13	=13
*2\right	*	*	*	*2\right	*
!	!	!	!LO:DY:a:t=p.	!	!LO:DY:t=f.
2G\	8e#X\L	(2BB/	p	(2bb\	f
.	8g\	.	.	.	.
.	8b\	.	.	.	.
.	8dd\J	.	.	.	.
=14	=14	=14	=14	=14	=14
2B\	4ee#X\	2GG/)	.	8ddd\L	.
.	.	.	.	8ccc#X\	.
.	4dd\	.	.	8bb\	.
.	.	.	.	8gg\J)	.
=15	=15	=15	=15	=15	=15
8A#X\L	4cc#X\	(8AA#X/L	.	(8ff#\L	.
8c#X\	.	8FF#/	.	8aa#X\	.
8f#\	8dd\L	8DD/	.	8bb\	.
8d\J	8b\J	8GG/J	.	8gg\J	.
!LO:LB:g=original	!LO:LB:g=original	!	!	!	!
=16	=16	=16	=16	=16	=16
8c#X\L	8a#X/L	8AA#X/L	.	8ff#\L	.
8B\J	8g/J	8BB/	.	8ee#X\	.
4c#\	4a#/	8AA#/	.	8ff#\	.
.	.	8C#X/J)	.	8cc#X\J)	.
=17	=17	=17	=17	=17	=17
8c#X\L	8a#X/L	(8F#\L	.	(8a#X\L	.
8B\	8f#/	8D\)	.	8b\J)	.
8B\	8f#/	8D'\	.	8b'\L	.
8B\J	8f#/J	8D'\J	.	8b'\J	.
=18	=18	=18	=18	=18	=18
8c#X\L	8a#X/L	(8AA#X/L	.	(8ff#\L	.
8B\	8g/	8BB/)	.	8ee#X\J)	.
8B\	8g/	8BB'/	.	8ee#'\L	.
8B\J	8g/J	8BB'/J	.	8ee#'\J	.
!	!	!LO:LB:g=original	!	!	!
=19	=19	=19	=19	=19	=19
8c#X\L	4f#/	(8AA#X/L	.	(8ff#\L	.
8d\J	.	8BB/J	.	8dd\	.
4e#X\	4a#X/	4C#X/)	.	8cc#X\	.
.	.	.	.	8ee#X\J)	.
!	!	!	!	!LO:PB:g=original	!
=20	=20	=20	=20	=20	=20
8d\L	4a#X/	2FF#/	.	(4aa#X^^\	.
8e#X\J	.	.	.	.	.
8f#\	8A#X/	.	.	8ff#\)	.
8r	8r	.	.	8r	.
=21	=21	=21	=21	=21	=21
2G\	8e#X/L	(2BB/	.	(2bb\	.
.	8g/	.	.	.	.
.	8b/	.	.	.	.
.	8dd/J	.	.	.	.
=22	=22	=22	=22	=22	=22
2B\	4ee#X\	2GG/)	.	8ddd\L	.
.	.	.	.	8ccc#X\	.
.	4dd\	.	.	8bb\	.
.	.	.	.	8gg\J)	.
=23	=23	=23	=23	=23	=23
8A#X\L	4cc#X\	(8AA#X/L	.	(8ff#\L	.
8c#X\	.	8FF#/	.	8aa#X\	.
8f#\	8dd\L	8DD/	.	8bb\	.
8d\J	8b\J	8GG/J	.	8gg\J	.
!LO:LB:g=original	!LO:LB:g=original	!	!	!	!
=24	=24	=24	=24	=24	=24
4.c#X\	4.a#X/	8AA#X/L	.	8ff#\L	.
.	.	8C#X/	.	8cc#X\	.
.	.	8F#/	.	8a#X\	.
8B\	8f#/	8D/J)	.	8b\J)	.
=25	=25	=25	=25	=25	=25
8d\L	8b/L	(8BB/L	.	(8gg\L	.
8cn\	8a-X/	8Cn/)	.	8ff#\)	.
8c\	8a-/	8C'/	.	8ff#'\	.
8c\J	8a-/J	8C'/J	.	8ff#'\J	.
=26	=26	=26	=26	=26	=26
8e-X\L	4b/	2GG/	.	(4bb^^\	.
8f#\J	.	.	.	.	.
*clefG2	*	*	*	*	*
8g/	8B/	.	.	8gg\)	.
8r	8r	.	.	8r	.
!	!	!	!	!LO:LB:g=original	!
=27	=27	=27	=27	=27	=27
8f#/L	8dd#X\L	(8D#X\L	.	(8bb\L	.
8e/	8cc\	8E\)	.	8aa#X\)	p
8e/	8cc\	8E'\	.	8aa#'\	.
8e/J	8cc\J	8E'\J	.	8aa#'\J	.
!	!	!LO:LB:g=original	!	!	!
=28	=28	=28	=28	=28	=28
8g/L	4dd#X\	2BB/	.	(4ddd#X^^\	.
8a#X/J	.	.	.	.	.
8b/	8d#X/	.	.	8bb\)	.
8r	8r	.	.	8r	.
=29	=29	=29	=29	=29	=29
!	!	!LO:TX:a:t=4	!	!	!
2r	4d#X/	2r	.	2r;	.
.	8B/	.	.	.	.
.	8r	.	.	.	.
=30	=30	=30	=30	=30	=30
2r	2r	2r	.	(4ddd#X\	pp
.	.	.	.	8bb\)	.
.	.	.	.	8r	.
=31	=31	=31	=31	=31	=31
2r	16G/LL	2r	.	2r	.
.	16B/	.	.	.	.
.	16e-X/	.	.	.	.
.	16B/JJ	.	.	.	.
.	8G/	.	.	.	.
.	8r	.	.	.	.
*clefF4	*	*	*	*	*
!LO:LB:g=original	!LO:LB:g=original	!	!	!	!
=32	=32	=32	=32	=32	=32
2r	2r	2r	.	(8eee-X\L	.
!	!	!	!	!	!LO:DY:t=ppp.
.	.	.	.	.	ppp
.	.	.	.	8bb\J	.
.	.	.	.	8eee-\L	.
!	!	!	!	!LO:TX:b:i:t=rall.	!
.	.	.	.	8bb\J)	.
=33	=33	=33	=33	=33	=33
2r;	2r;	2r;	.	2bbb;\	.
=34	=34	=34	=34	=34	=34
!	!	!	!LO:DY:rj:a:t=f.	!LO:TX:a:i:t=a tempo.	!
8GG\L	4b 4g/	4G\	f	4gg^^\	f
8dJ 8G\	.	.	.	.	.
8GG\L	4b 4d/	4G\	.	4dd^^\	.
8BJ 8D\	.	.	.	.	.
!	!	!	!	!LO:LB:g=original	!
=35	=35	=35	=35	=35	=35
!LO:TX:t=P:problem:mixed beam	!	!	!	!	!
8CC/L	8a-XL 8e-X/	4C/	.	8ee-X'\L	.
8cJ 8C\	8a-J 8d/	.	.	8dd'\J	.
!LO:TX:t=P:problem:mixed beam	!	!	!	!	!
8DD/L	4a- 4c/	4D/	.	4cc^^\	.
8cJ 8D\	.	.	.	.	.
=36	=36	=36	=36	=36	=36
!LO:TX:t=P:problem:mixed beam	!	!	!	!	!
8EE-X/L	16gLL 16B/	4E-X/	.	16b'\LL	.
.	16c/	.	.	16cc'\	.
8GJ 8E-X\	16e-X/	.	.	16ee-X'\	.
.	16g/JJ	.	.	16gg'\JJ	.
!LO:TX:t=P:problem:mixed beam	!	!	!	!	!
8EEE-X/L	4b 4g/	4EE-X/	.	4bb^^\	.
8GJ 8E-\	.	.	.	.	.
=37	=37	=37	=37	=37	=37
8BBL 8BBB/	16ddLL 16g\	4GG/	.	(16gg\LL	.
.	16b\	.	.	16bb\	.
8GGJ 8GGG/	16dd 16b\	.	.	16ddd\	.
.	16b\JJ	.	.	16bb\JJ)	.
8BBL 8BBB/	4b 4g\	4r	.	4gg\	.
8DJ 8DD/	.	.	.	.	.
*	*	*clefC4	*	*	*
=38	=38	=38	=38	=38	=38
8GL 8GG\	4b 4d\	4.g\	.	4dd\	.
8gJ 8B\	.	.	.	.	.
8E-XL 8EE-X\	8e-X/L	.	.	8ee-X'\L	.
8DJ 8DD\	8a-XJ 8f#/	8f#X\	.	8ff#'\J	.
=39	=39	=39	=39	=39	=39
16CLL 16CC/	16a-XLL 16f#/	(16e-X\LL	.	(16ff#\LL	.
16BBJJ 16BBB/	16g/JJ	16d\JJ)	.	16gg\JJ)	.
!	!	!	!	!LO:N:vis=4.	!
4BB 4BBB/	4g/	4d\	.	4gg\	.
8BB 8BBB/	8g/	8d\	.	8gg\	.
*clefG2	*	*	*	*	*
!	!	!LO:LB:g=original	!	!	!
=40	=40	=40	=40	=40	=40
16dd\LL	16ddd\LL	2r	.	2r	.
16b\JJ	16bb\JJ	.	.	.	.
4g\	4gg\	.	.	.	.
8g\	8gg\	.	.	.	.
*clefF4	*	*	*	*	*
=41	=41	=41	=41	=41	=41
16CLL 16CC/	16a-XLL 16f#/	(16e-X\LL	.	(16ff#\LL	.
16BBJJ 16BBB/	16g/JJ	16d\JJ)	.	16gg\JJ)	.
!	!	!	!	!LO:N:vis=4.	!
4BB 4BBB/	4g/	4d\	.	4gg\	.
8BB 8BBB/	8g/	8d\	.	8gg\	.
*clefG2	*	*	*	*	*
!LO:LB:g=original	!LO:LB:g=original	!	!	!LO:LB:g=original	!
=42	=42	=42	=42	=42	=42
!	!	!LO:TX:a:t=3	!	!	!
16f#/LL	16ff#\LL	2r	.	(16ff#\LL	.
16g/JJ	16gg\JJ	.	.	16gg\JJ)	.
8g/	8gg\	.	.	8gg\	.
16g/LL	16gg\LL	.	.	(16gg\LL	.
16a-X/JJ	16aa-X\JJ	.	.	16aa-X\JJ)	.
8a-/	8aa-\	.	.	8aa-\	.
=43	=43	=43	=43	=43	=43
16g#X/LL	16gg#X\LL	2r	.	(16gg#X\LL	.
16an/JJ	16aan\JJ	.	.	16aan\JJ)	.
8a/	8aa\	.	.	8aa\	.
16a/LL	16aa\LL	.	.	(16aa\LL	.
16b-X/JJ	16bb-X\JJ	.	.	16bb-X\JJ)	.
8b-\	8bb-\	.	.	8bb-\	.
=44	=44	=44	=44	=44	=44
16ff#\LL	16fff#\LL	2r	.	2r	.
16dd\JJ	16ddd\JJ	.	.	.	.
4b-X\	4bb-X\	.	.	.	.
8b-\	8bb-\	.	.	.	.
*clefF4	*	*	*	*	*
=45	=45	=45	=45	=45	=45
16E-XLL 16EE-X/	16cc-XLL 16a/	(16g-X\LL	.	(16aa\LL	.
16DJJ 16DD/	16b-X/JJ	16fn\JJ)	.	16bb-X\JJ)	.
4D 4DD/	4b-/	4f\	.	4bb-^^\	.
8D 8DD/	8b-/	8f\	.	8bb-\	.
*clefG2	*	*	*	*	*
=46	=46	=46	=46	=46	=46
!	!	!LO:TX:a:t=3	!	!	!
16a/LL	16aa\LL	2r	.	(16aa\LL	.
16b-X/JJ	16bb-X\JJ	.	.	16bb-X\JJ)	.
8b-/	8bb-\	.	.	8bb-\	.
16b-/LL	16bb-\LL	.	.	(16bb-\LL	.
16bn/JJ	16bbn\JJ	.	.	16bbn\JJ)	.
8b/	8bb\	.	.	8bb\	.
!LO:LB:g=original	!LO:LB:g=original	!	!	!	!
=47	=47	=47	=47	=47	=47
16b\LL	16bb\LL	2r	.	(16bb\LL	.
16cc\JJ	16ccc\J	.	.	16ccc\JJ)	.
8cc\	8ccc\J	.	.	8ccc\	.
16cc\LL	16ccc\LL	.	.	(16ccc\LL	.
16dd-X\JJ	16ddd-X\J	.	.	16ddd-X\JJ)	.
8dd-\	8ddd-\J	.	.	8ddd-\	.
!	!	!	!	!LO:LB:g=original	!
=48	=48	=48	=48	=48	=48
*	*8va	*	*	*	*
16aa-y\LL	16aaa-X\LL	2r	.	2r	.
16ffn\JJ	16fffn\	.	.	.	.
!	!LO:N:vis=8.	!	!	!	!
4dd-X\	4ddd-XJJ\	.	.	.	.
8dd-\	8ddd-\	.	.	.	.
*	*X8va	*	*	*	*
*clefF4	*	*	*	*	*
=49	=49	=49	=49	=49	=49
16G-XLL 16GG-X\	16ee--LL 16cc\	(16b--\LL	.	(16ccc\LL	.
!LO:SIC:v:s=16Fn 16FFn	!	!	!	!	!
16F#JJ 16FF#\	16dd-X\JJ	16a-X\JJ)	.	16ddd-X\JJ)	.
!LO:SIC:v:s=4Fn 4FFn	!	!	!	!	!
4F# 4FF#\	4dd-\	4a-\	.	4ddd-^^\	.
!LO:SIC:v:s=8Fn 8FFn	!	!LO:N:vis=8.	!	!	!
8F# 8FF#\	8dd-\	8a-\	.	8ddd-\	.
*clefG2	*	*	*	*	*
=50	=50	=50	=50	=50	=50
16aa-X\LL	16aaa-X\LL	2r	.	2r	.
16ffn\JJ	16fffny\JJ	.	.	.	.
4dd-X\	4ddd-X\	.	.	.	.
8dd-\	8ddd-\	.	.	.	.
*clefF4	*	*	*	*	*
=51	=51	=51	=51	=51	=51
16G-XLL 16GG-X\	16ee--LL 16cc\	(16b--\LL	.	(16ccc\LL	.
!LO:SIC:v:s=16Fn 16FFn	!	!	!	!	!
16F#JJ 16FF#\	16dd-X\JJ	16a-X\JJ)	.	16ddd-X\JJ)	.
!LO:SIC:v:s=4Fn 4FFn	!	!	!	!	!
4F# 4FF#\	4dd-\	4a-\	.	4ddd-^^\	.
8F#X 8FF#X\	8ddn 8cc\	8a-\	.	8ccc\	.
!	!	!LO:PB:g=original	!	!	!
=52	=52	=52	=52	=52	=52
*2\left	*	*	*	*	*
2G 2GG\	16ddLL 16cc\	4g\	.	(16bb\LL	.
.	16ee-X\JJ	.	.	16ccc\JJ)	.
.	8ee-\	.	.	8ccc\	.
.	16ccLL 16a-X/	4e-X\	.	(16ff#\LL	.
.	16g/JJ	.	.	16gg\JJ)	.
.	8g/	.	.	8gg\	.
=53	=53	=53	=53	=53	=53
2GG 2GGG/	16a-XLL 16f#/	4c\	.	(16dd\LL	.
.	16g/JJ	.	.	16ee-X\JJ)	.
.	8g/	.	.	8ee-\	.
.	16f#XLL 16d/	4A-X\	.	(16b\LL	.
.	16c/JJ	.	.	16cc\JJ)	.
.	8c/	.	.	8cc\	.
!LO:LB:g=original	!LO:LB:g=original	!	!	!LO:LB:g=original	!
=54	=54	=54	=54	=54	=54
*2\right	*	*	*	*	*
[2GG [2GGG\	16cLL 16A-X/	4E-X/	.	(16f#/LL	.
.	16G/JJ	.	.	16g/JJ)	.
.	8G/	.	.	8g/	.
.	4r	4r	.	4r	.
=55	=55	=55	=55	=55	=55
2GG] 2GGG\]	2r	2r	.	2r	.
=56	=56	=56	=56	=56	=56
[2GG [2GGG\	16BLL 16F#/	4D/	.	(16a-X/LL	.
.	16G/JJ	.	.	16g/JJ)	.
.	8G/	.	.	8g/	.
.	4ryy	4r	.	4r	.
=57	=57	=57	=57	=57	=57
2GG] 2GGG\]	2r	2r	.	2r	.
*	*	*clefF4	*	*	*
=58	=58	=58	=58	=58	=58
*	*	*2\right	*	*	*
2GG [2CC\	2G/	(2E-X\	.	(>[2c/	.
=59	=59	=59	=59	=59	=59
2AA-X 2CC\]	2A-X/	2F#\)	.	4c/]	.
.	.	.	.	4d/)	.
=60	=60	=60	=60	=60	=60
2C 2CC\	2c/	[2G\	.	(>2e-X/	.
=61	=61	=61	=61	=61	=61
*^	*	*	*	*	*
4BB\	2DD\	4B/	4G\]	.	4d/	.
4AA-X\	.	4A-X/	4F#'\	.	4c/)	.
*v	*v	*	*	*	*	*
!	!	!LO:LB:g=original	!	!LO:LB:g=original	!
=62	=62	=62	=62	=62	=62
4GG 4EE-X/	4G/	[2E-X\	.	8B/L	.
.	.	.	.	8c/	.
4BB 4DD/	4B/	.	.	8.e-X/	.
.	.	.	.	16g/Jk	.
=63	=63	=63	=63	=63	=63
*^	*	*	*	*	*
2C/	8CC\L	[2c/	2E-X\]	.	([2a-X/	.
.	8EE-X\	.	.	.	.	.
.	8.FF#\	.	.	.	.	.
.	16AA-X\Jk	.	.	.	.	.
*v	*v	*	*	*	*	*
!LO:PB:g=original	!LO:PB:g=original	!	!	!	!
=64	=64	=64	=64	=64	=64
4C\	2c/]	(2F#\	.	2a-X/]	.
4D\	.	.	.	.	.
=65	=65	=65	=65	=65	=65
4G 4E-X\	4g/	2G\)	.	4g/	.
4C\	4c/	.	.	4cc/	.
=66	=66	=66	=66	=66	=66
*^	*	*	*	*	*
2BB/	4EE-X\	2B/	4G\	.	8ee-X\L)	.
.	.	.	.	.	8dd'\	.
.	4GG\	.	4D\	.	8.b'\	.
.	.	.	.	.	16g\Jk	.
=67	=67	=67	=67	=67	=67	=67
[2C/	4AA-X\	2c/	[2C/	.	[2e-X/	.
.	4GG\	.	.	.	.	.
*v	*v	*	*	*	*	*
=68	=68	=68	=68	=68	=68
4C] 4FF#\	4c/	4C/]	.	4e-/]	.
4BB 4DD\	4B/	(>[4D/	.	[4f#X/	.
=69	=69	=69	=69	=69	=69
4C 4AA-X\	4c/	4D/]	.	4f#/]	.
4D 4BB\	4d/	4BB/)	.	(4g/	.
!	!	!	!	!LO:LB:g=original	!
=70	=70	=70	=70	=70	=70
*^	*	*	*	*	*
2BB/	4EE-X\	2B/	4G\	.	8ee-X\L)	.
.	.	.	.	.	8dd\	.
.	4GG\	.	4D\	.	8.b\	.
.	.	.	.	.	16g\Jk	.
=71	=71	=71	=71	=71	=71	=71
[2C/	4AA-X\	[2c/	[2C/	.	[2e-X/	.
.	4GG\	.	.	.	.	.
*v	*v	*	*	*	*	*
=72	=72	=72	=72	=72	=72
4C] 4FF#/	4c/]	4C/]	.	4e-/]	.
4BB 4DD/	4B/	[4D/	.	[4f#X/	.
!LO:LB:g=original	!LO:LB:g=original	!LO:LB:g=original	!	!	!
=73	=73	=73	=73	=73	=73
4C 4AA-X/	4c/	(>4D/]	.	4f#/]	.
4D 4BB/	4d/	4BB/)	.	4g/	.
=74	=74	=74	=74	=74	=74
*^	*	*	*	*	*
2C/	4C\	2c/	2E-X\	.	(>4g/	.
.	4CC/	.	.	.	4cc/)	.
*v	*v	*	*	*	*	*
=75	=75	=75	=75	=75	=75
4E-X\	4G/	(4G\	.	8c'/L	.
.	.	.	.	8e-X'/	.
4D\	4B/	4F#\)	.	8.f#X/	.
.	.	.	.	16g/Jk	.
=76	=76	=76	=76	=76	=76
[2C\	[>2c/	(4E-X\	.	(2a-X/	.
.	.	4F#\)	.	.	.
=77	=77	=77	=77	=77	=77
2C\]	2c/]	4G\	.	4g/	.
.	.	4A-X\	.	4f#/)	.
!	!	!	!	!LO:LB:g=original	!
=78	=78	=78	=78	=78	=78
*^	*	*	*	*	*
2EE-X/	4CC\	2E-X/	[2C/	.	(4g/	.
.	4BBB\	.	.	.	8.e-X/L)	.
.	.	.	.	.	16d/Jk	.
*v	*v	*	*	*	*	*
=79	=79	=79	=79	=79	=79
2FF#X 2AAA-X/	2F#X/	2C/]	.	4c/	.
.	.	.	.	32qqd/LLL	.
.	.	.	.	32qqc/	.
.	.	.	.	32qqB/JJJ	.
.	.	.	.	8.c/L	.
.	.	.	.	16d/Jk	.
=80	=80	=80	=80	=80	=80
2GG 2GGG/	2G/	2D/	.	(4B/	.
.	.	.	.	4G/)	.
=81	=81	=81	=81	=81	=81
4GG 4GGG/	4G/	2r	.	4G^^/	.
4GG 4GGG/	4G/	.	.	4G^^/	.
!LO:LB:g=original	!LO:LB:g=original	!	!	!	!
=82	=82	=82	=82	=82	=82
(>2GG [2CC/	2G/	(2E-X\	.	(>[2c/	.
=83	=83	=83	=83	=83	=83
2AA-X 2CC/])	2A-X/	2F#\)	.	4c/]	.
.	.	.	.	4d/)	.
!	!	!LO:LB:g=original	!	!	!
=84	=84	=84	=84	=84	=84
2C 2CC/	2c/	[2G\	.	([4e-X/	.
!	!	!	!	!LO:TUP:a:problem:klamra łukowa	!
.	.	.	.	20e-/LL]	.
.	.	.	.	20f#X/	.
.	.	.	.	20e-/	.
.	.	.	.	20f#/	.
.	.	.	.	20e-/JJ	.
=85	=85	=85	=85	=85	=85
*^	*	*	*	*	*
4BB/	2DD\	4B/	4G\]	.	4d/	.
4AA-X/	.	4A-X/	4F#\	.	4c/)	.
*v	*v	*	*	*	*	*
!	!	!	!	!LO:LB:g=original	!
=86	=86	=86	=86	=86	=86
4GG 4EE-X/	2G/	4E-X/	.	(16B/LL	.
.	.	.	.	16c/)	.
.	.	.	.	16e-X'/	.
.	.	.	.	16g'/JJ	.
4EEE-X/	.	4EE-X/	.	4b^^/	.
=87	=87	=87	=87	=87	=87
!	!	!LO:N:vis=1	!	!	!
8BBL 8BBB/	8d/L	2GG/	.	(16g/LL	.
.	.	.	.	16b/)	.
8GGJ 8GGG/	8B/J	.	.	16dd'/	.
.	.	.	.	16b'/JJ	.
8BBL 8BBB/	4B/	.	.	4g^^</	.
8DJ 8DD/	.	.	.	.	.
=88	=88	=88	=88	=88	=88
*clefG2	*	*	*	*	*
2g 2e-X/	8b\L	2r	.	2r	.
.	8cc\	.	.	.	.
!	!LO:N:vis=8	!	!	!	!
.	8.ee-X\	.	.	.	.
.	16gg\Jk	.	.	.	.
=89	=89	=89	=89	=89	=89
*	*2\right	*	*	*	*
!	!	!	!	!LO:TX:t=P:problem:skreślone takty [6]	!
2g 2d 2G;/	2bb 2gg 2b;\	2r;	.	2r;	.
*	*	*clefC4	*	*	*
!LO:LB:g=original	!LO:LB:g=original	!	!	!LO:PB:g=original	!
=90	=90	=90	=90	=90	=90
*clefF4	*	*	*	*	*
2F# [2BB\	2f#/	(2d\	.	([2b\	.
=91	=91	=91	=91	=91	=91
2G 2BB\]	2g/	2e#X\)	.	4b\]	.
.	.	.	.	4cc#X\)	.
=92	=92	=92	=92	=92	=92
2B 2BB\	2b/	[2f#\	.	([4dd\	.
!	!	!	!	!LO:TUP:a:problem:klamra łukowa	!
.	.	.	.	20dd\LL]	.
.	.	.	.	20ee#X\	.
.	.	.	.	20dd\	.
.	.	.	.	20ee#\	.
.	.	.	.	20dd\JJ	.
=93	=93	=93	=93	=93	=93
*^	*	*	*	*	*
4A#X/	2C\	4a#X/	4f#\]	.	4cc#X\	.
4G/	.	4g/	4e#X\	.	4b\)	.
*v	*v	*	*	*	*	*
!	!	!LO:LB:g=original	!	!	!
=94	=94	=94	=94	=94	=94
8F#L 8D\	8d/L	4f#\	.	(16a#X\LL	.
.	.	.	.	16b\)	.
8BB\J	8B/J	.	.	16dd'\	.
.	.	.	.	16ee#X'\JJ	.
4F# 4AA#X\	4c#X/	4f#\	.	(16ff#\LL	.
.	.	.	.	16cc#X\J)	.
.	.	.	.	8a#\J	.
=95	=95	=95	=95	=95	=95
8A#XL 8AA#X\	8cc#X\L	[2F#/	.	(16ff#\LL	.
.	.	.	.	16aa#X\	.
8F#J 8FF#\	8a#X\J	.	.	16ccc#X\	.
.	.	.	.	16aa#\JJ)	.
8A#L 8AA#\	4a#\	.	.	4ff#\	.
8c#XJ 8C#X\	.	.	.	.	.
=96	=96	=96	=96	=96	=96
*clefG2	*	*	*	*	*
2ee#X 2dd 2b 2f#\	8aa#X\L	4F#/]	.	2r	.
.	8bb\	.	.	.	.
!	!LO:N:vis=8.	!	!	!	!
.	8ddd\	4r	.	.	.
.	8eee#X\J	.	.	.	.
=97	=97	=97	=97	=97	=97
!LO:SIC:v:n=2:s=2cc#	!	!	!	!	!
2ff# 2cc 2a#X 2f#;\	2fff# 2ccc#X 2aa#X;\	2r;	.	2r;	.
!LO:LB:g=original	!LO:LB:g=original	!	!	!	!
=98	=98	=98	=98	=98	=98
!	!	!LO:TX:a:t=4	!	!LO:TX:a:t=4	!
4b 4g\	4bb 4gg\	2r	.	2r	.
4ee\	4eee\	.	.	.	.
=99	=99	=99	=99	=99	=99
8e/L	8ee\L	2r	.	2r	.
8g/	8gg\	.	.	.	.
8.a#X/	8.aa#X\	.	.	.	.
16b/Jk	16bb\Jk	.	.	.	.
=100	=100	=100	=100	=100	=100
2cc [<2g [2e\	2ccc [<2gg [2ee\	2r	.	2r	.
=101	=101	=101	=101	=101	=101
4b 4g] 4e\]	4bb 4gg] 4ee\]	2r	.	2r	.
4a#X\	4aa#X\	.	.	.	.
*	*	*clefF4	*	*	*
!	!	!	!	!LO:LB:g=original	!
=102	=102	=102	=102	=102	=102
!	!	!LO:N:vis=1	!	!	!
8dd\L	8ff#\L	[2FF#/	.	(16aa#X\LL	.
.	.	.	.	16bb\)	.
!	!	!	!	!	!LO:DY:t=pp.
8ddJ 8b\	8ff#\J	.	.	16ddd'\	pp
.	.	.	.	16eee#X'\JJ	.
4cc#X 4a#X\	4ff#\	.	.	(16fff#\LL	.
.	.	.	.	16ccc#X\J)	.
.	.	.	.	8aa#\J	.
=103	=103	=103	=103	=103	=103
!	!	!LO:N:vis=1	!	!	!
8b-X\L	8dd\L	2FF#/_	.	(16ff#\LL	.
.	.	.	.	16gg\)	.
8b-J 8g\	8dd\J	.	.	16bb-X'\	.
.	.	.	.	16ccc#X'\JJ	.
4a 4f#\	4dd\	.	.	(16ddd\LL	.
.	.	.	.	16aa\J	.
.	.	.	.	8ff#\J)	.
=104	=104	=104	=104	=104	=104
!	!	!LO:N:vis=1	!	!	!
8f#/L	8b-X\L	2FF#/_	.	(16dd\LL	.
.	.	.	.	16ee-X\)	.
8f#J 8e-X/	8b-\J	.	.	16ff#'\	.
.	.	.	.	16aa'\JJ	.
4fn 4d/	4b-\	.	.	(16bb-X\LL	.
.	.	.	.	16ffn\J)	.
.	.	.	.	8dd\J	.
*clefF4	*	*	*	*	*
!LO:LB:g=original	!LO:LB:g=original	!	!	!	!
=105	=105	=105	=105	=105	=105
!	!	!LO:N:vis=1	!	!	!
8d\L	8f#/L	2FF#/]	.	(16a#X\LL	.
.	.	.	.	16b\)	.
8dJ 8B\	8f#/J	.	.	16dd'\	.
.	.	.	.	16ee#X'\JJ	.
4c#X 4A#X\	4f#/	.	.	(16ff#\LL	.
.	.	.	.	16cc#X\J	.
.	.	.	.	8a#\J)	.
!	!	!LO:LB:g=original	!	!	!
=106	=106	=106	=106	=106	=106
!	!	!LO:TX:a:t=4	!	!LO:TX:a:t=4	!
4B 4G\	4b 4g\	2r	.	2r	.
4e\	4ee\	.	.	.	.
=107	=107	=107	=107	=107	=107
8E\L	8e\L	2r	.	2r	.
8G\	8g\	.	.	.	.
!	!LO:N:vis=8	!	!	!	!
8.A#X\	8.a#X\	.	.	.	.
16B\Jk	16b\Jk	.	.	.	.
=108	=108	=108	=108	=108	=108
2c [<2G [2E\	2cc [<2g [2e\	2r	.	2r	.
=109	=109	=109	=109	=109	=109
4B 4G] 4E\]	4b 4g] 4e\]	2r	.	2r	.
4A#X\	4a#X\	.	.	.	.
=110	=110	=110	=110	=110	=110
!	!	!LO:N:vis=1	!	!	!
8d\L	8f#/L	[2FF#/	.	(16a#X/LL	.
.	.	.	.	16b/)	.
!	!	!	!	!	!LO:DY:t=p.
8dJ 8B\	8f#/J	.	.	16dd'/	p
.	.	.	.	16ee#X'/JJ	.
4c#X 4A#X\	4f#/	.	.	(16ff#/LL	.
.	.	.	.	16cc#X/J	.
.	.	.	.	8a#/J)	.
!	!	!	!	!LO:LB:g=original	!
=111	=111	=111	=111	=111	=111
!	!	!LO:N:vis=1	!	!	!
8B-X\L	8d/L	2FF#/_	.	(16f#/LL	.
.	.	.	.	16g/)	.
8B-J 8G\	8d/J	.	.	16b-X'/	.
.	.	.	.	16cc#X'/JJ	.
4A 4F#\	4d/	.	.	(16dd/LL	.
.	.	.	.	16a/J	.
.	.	.	.	8f#/J)	.
!LO:LB:g=original	!LO:LB:g=original	!	!	!	!
=112	=112	=112	=112	=112	=112
!	!	!LO:N:vis=1	!	!	!
8F#\L	8B-X/L	2FF#/_	.	(16d/LL	.
.	.	.	.	16e-X/)	.
8F#J 8E-X\	8B-/J	.	.	16f#'/	.
.	.	.	.	16a'/JJ	.
4Fn 4D\	4B-/	.	.	(16b-X/LL	.
.	.	.	.	16fn/J	.
.	.	.	.	8d/J)	.
=113	=113	=113	=113	=113	=113
!	!	!LO:N:vis=1	!	!	!
8D\L	8F#/L	2FF#/]	.	(16A#X/LL	.
.	.	.	.	16B/)	.
8DJ 8BB\	8F#/J	.	.	16d'/	.
.	.	.	.	16e#X'/JJ	.
4C#X 4AA#X\	4F#/	.	.	(16f#/LL	.
.	.	.	.	16c#X/J)	.
.	.	.	.	8A#/J	.
=114	=114	=114	=114	=114	=114
2FFF#\	2FF#</	2r	.	2r	.
=115	=115	=115	=115	=115	=115
!	!	!LO:TX:a:i:t=pizz	!	!	!
8D\L	8F#/L	4FF#/	.	(16A#X/LL	.
.	.	.	.	16B/)	.
8DJ 8BB\	8F#/J	.	.	16d'/	.
.	.	.	.	16e#X'/JJ	.
!LO:SIC:v:n=1:s=4C#	!	!	!	!	!
4C 4AA#X\	4F#/	4r	.	(16f#/LL	.
.	.	.	.	16c#X/J	.
.	.	.	.	8A#/J)	.
=116	=116	=116	=116	=116	=116
2FF# 2FFF#/	2rb	2r	.	2r	.
=117	=117	=117	=117	=117	=117
!	!	!LO:TX:a:i:t=arco.	!	!	!
!	!	!LO:N:vis=1	!	!LO:N:vis=8	!LO:DY:a
2BB 2FF#\	2E#X< 2D</	[2FF#/	.	(8.A#X/L	f
.	.	.	.	16B/K	.
!	!	!	!	!LO:N:vis=8	!
.	.	.	.	8.d/	.
.	.	.	.	16e#X/Jk)	.
!	!	!	!	!LO:LB:g=original	!
=118	=118	=118	=118	=118	=118
*	*2\left	*	*	*	*
!	!	!LO:N:vis=1	!	!LO:N:vis=8	!
2B 2F#\	2e#X 2d\	2FF#/_	.	(8.a#X\L	.
.	.	.	.	16b\K	.
!	!	!	!	!LO:N:vis=8	!
.	.	.	.	8.dd\	.
.	.	.	.	16ee#X\Jk)	.
*clefG2	*	*	*	*	*
=119	=119	=119	=119	=119	=119
!	!	!LO:N:vis=1	!	!LO:N:vis=8	!
2b 2f#\	2ee#X 2dd\	2FF#/]	.	(8.aa#X\L	.
.	.	.	.	16bb\K	.
.	.	.	.	8.ddd\	.
.	.	.	.	16eee#X\Jk)	.
!LO:LB:g=original	!LO:LB:g=original	!LO:LB:g=original	!	!	!
=120	=120	=120	=120	=120	=120
!	!	!LO:N:vis=1	!	!	!
[2b [2f#/	[2ee#X [2dd\	[2FF#/	.	[2eee#X\	.
.	.	.	.	.	f
=121	=121	=121	=121	=121	=121
!	!	!LO:N:vis=1	!	!	!
2b] 2f#/]	2ee#] 2dd\]	2FF#/_	.	2eee#\]	.
=122	=122	=122	=122	=122	=122
*	*2\right	*	*	*	*
!	!	!LO:N:vis=1	!	!LO:TX:a:t=longa	!
2a#X 2f#;/	2ff# 2cc#X;\	2FF#;/]	.	2fff#;\	.
*clefF4	*	*	*	*	*
=123	=123	=123	=123	=123	=123
!	!	!LO:TX:a:i:t=marcato	!LO:DY:a	!	!
8dL 8B\	8b\L	2BB/	f	(16ff#\LL	.
.	.	.	.	16dd\	.
8d\J	8dd\J	.	.	16bb\	.
.	.	.	.	16ff#\JJ	p
4f# 4B\	4ff#\	.	.	4ddd^^\)	.
=124	=124	=124	=124	=124	=124
4f# 4c#X\	8r	4AA#X/	.	8r	.
.	8ff#\	.	.	8ccc#X'\	.
4f# 4d\	8r	4FF#/	.	8r	.
.	8ff#\	.	.	8aa#X'\	.
=125	=125	=125	=125	=125	=125
16d\LL	2b 2B/	2GG/	.	4bb^^\	.
16g\	.	.	.	.	.
16B\	.	.	.	.	.
16d\JJ	.	.	.	.	.
4G\	.	.	.	4r	.
=126	=126	=126	=126	=126	=126
4F#\	8r	4GG/	.	4r	.
.	8b 8B/	.	.	.	.
4Fn\	8r	4GG/	.	16gg'\LL	.
.	.	.	.	16bb'\	.
.	8b 8B/	.	.	16ddd'\	.
.	.	.	.	16eee#X'\JJ	.
!	!	!	!	!LO:LB:g=original	!
=127	=127	=127	=127	=127	=127
8A#XL 8AA#X\	8cc#XL 8c#X/	8FF#/L	.	8fff#^^\L	.
!	!	!	!	!	!LO:DY:rj:t=ff.
8BJ 8BB\	8ddJ 8d/	8EE#X/	.	8ggg^^\J	ff
8A#L 8AA#\	8cc#L 8c#/	8FF#/	.	8fff#^^\L	.
8BB\J	8bJ 8B/	8GG/J	.	8eee#X^^\J	.
!LO:PB:g=original	!LO:PB:g=original	!	!	!	!
=128	=128	=128	=128	=128	=128
8C#X\L	(8a#XL (8A#X/	4FF#/	.	8fff#'\L	.
8BB\J	8bJ 8B/))	.	.	(16ddd'\L	.
.	.	.	.	16ddd'\JJ)	.
8C#\L	(8a#L (8A#/	4FF#/	.	8fff#'\L	.
8BB\J	8bJ 8B/))	.	.	(16ddd'\L	.
.	.	.	.	16ddd'\JJ)	.
=129	=129	=129	=129	=129	=129
8A#XL 8AA#X\	8cc#XL 8c#X/	8FF#/L	.	8fff#^^\L	.
8BJ 8BB\	8ddJ 8d/	8EE#X/	.	8ggg^^\J	.
8A#L 8AA#\	8cc#L 8c#/	8FF#/	.	8fff#^^\L	.
8BB\J	8bJ 8B/	8GG/J	.	8eee#X^^\J	.
!	!	!LO:LB:g=original	!	!	!
=130	=130	=130	=130	=130	=130
8C#X\L	8a#XL 8A#X/	4FF#/	.	8fff#\L	.
8BB\J	8bJ 8B/	.	.	(16ddd'\L	.
.	.	.	.	16ddd'\JJ)	.
8C#\L	8a#L 8A#/	4FF#/	.	8fff#\L	.
8BB\J	8bJ 8B/	.	.	(16ddd'\L	.
.	.	.	.	16ddd'\JJ)	.
=131	=131	=131	=131	=131	=131
8F#\	8r	[2F#\	.	8fff#\L	.
8r	8a#X 8f# 8c/	.	.	(16ccc#X'\L	.
.	.	.	.	16ccc#'\JJ)	.
8F#\	8r	.	.	8ddd\L	.
8r	8an 8f# 8d/	.	.	(16aa'\L	.
.	.	.	.	16aa'\JJ)	.
=132	=132	=132	=132	=132	=132
8F#\	8r	2F#\]	.	8bb-X\L	.
8r	8b-X 8fn 8d/	.	.	(16ffn'\L	.
.	.	.	.	16ff'\JJ)	.
8F#\	8r	.	.	8ff#X\L	.
8r	8a#X 8f 8c/	.	.	(16cc#X'\L	.
.	.	.	.	16cc#'\JJ)	.
*	*clefF4	*	*	*	*
=133	=133	=133	=133	=133	=133
8FF#/	8r	[2FF#/	.	8ff#\L	.
8r	8A#X 8F# 8C#X\	.	.	(16cc#X'\L	.
.	.	.	.	16cc#'\JJ)	.
8FF#/	8r	.	.	8dd\L	.
8r	8An 8F# 8D\	.	.	(16a'\L	.
.	.	.	.	16a'\JJ)	.
!LO:LB:g=original	!LO:LB:g=original	!	!	!LO:LB:g=original	!
=134	=134	=134	=134	=134	=134
8FF#/	8r	2FF#/]	.	8b-X\L	.
8r	8B-X 8Fn 8D\	.	.	(16fn'\L	.
.	.	.	.	16f'\JJ)	.
8FF#/	8r	.	.	8f#X/L	.
8r	8A#X 8F#X 8C\	.	.	(16c#X'/L	.
.	.	.	.	16c#'/JJ)	.
*	*clefG2	*	*	*	*
=135	=135	=135	=135	=135	=135
16FF#LL 16FFF#/	16F#/LL	4FF#/	.	4f#/	.
16GG/	16G/	.	.	.	.
16GG#X/	16G#X/	.	.	.	.
16AA/JJ	16A/JJ	.	.	.	.
16AA#X/LL	16A#X/LL	4r	.	4r	.
16BB/	16B/	.	.	.	.
16C/	16c/	.	.	.	.
16C#X/JJ	16c#X/JJ	.	.	.	.
=136	=136	=136	=136	=136	=136
!	!	!LO:TX:a:t=3	!	!LO:TX:a:t=3	!
16D\LL	16d/LL	2r	.	2r	.
16D#X\	16d#X/	.	.	.	.
16E\	16e/	.	.	.	.
16E#X\JJ	16e#X/JJ	.	.	.	.
16F#\LL	16f#/LL	.	.	.	.
16G\	16g/	.	.	.	.
16G#X\	16g#X/	.	.	.	.
16A\JJ	16a/JJ	.	.	.	.
=137	=137	=137	=137	=137	=137
16A#X\LL	16a#X\LL	2r	.	2r	.
16B\	16b\	.	.	.	.
16c\	16ccn\	.	.	.	.
16c#X\JJ	16cc#X\JJ	.	.	.	.
16d\LL	16dd\LL	.	.	.	.
16d#X\	16dd#X\	.	.	.	.
16e\	16ee\	.	.	.	.
16e#X\JJ	16ee#X\JJ	.	.	.	.
*clefG2	*	*	*	*	*
=138	=138	=138	=138	=138	=138
16f#/LL	16ff#X\LL	2r	.	2r	.
16g/	16gg\	.	.	.	.
16e#X/	16ee#X\	.	.	.	.
16g/JJ	16gg\JJ	.	.	.	.
8f#/	16ff#\LL	.	.	.	.
.	16aa#X\	.	.	.	.
8r	16ccc#X\	.	.	.	.
.	16fff#\JJ	.	.	.	.
*clefF4	*	*	*	*	*
=139	=139	=139	=139	=139	=139
8dL 8B\	8b\L	2BB/	.	(16ff#\LL	.
.	.	.	.	16dd\	.
8d\J	8dd\J	.	.	16bb\	.
.	.	.	.	16ff#\JJ	.
4f# 4B\	4ff#\	.	.	4ddd^^\)	.
!LO:LB:g=original	!LO:LB:g=original	!	!	!	!
=140	=140	=140	=140	=140	=140
4f# 4c#X\	8r	4AA#X/	.	8r	.
.	8ff#\	.	.	8ccc#X\	.
4f# 4d\	8r	4FF#/	.	8r	.
.	8ff#\	.	.	8aa#X\	.
=141	=141	=141	=141	=141	=141
16d\LL	2b 2B\	2GG/	.	4bb\	.
16g\	.	.	.	.	.
16B\	.	.	.	.	.
16d\JJ	.	.	.	.	.
4G\	.	.	.	4r	.
!	!	!LO:LB:g=original	!	!	!
=142	=142	=142	=142	=142	=142
4F#\	8r	4GG/	.	4r	.
.	8b 8B/	.	.	.	.
4Fn\	8r	4GG/	.	16gg\LL	.
.	.	.	.	16bb\	.
.	8b 8B/	.	.	16ddd\	.
.	.	.	.	16fffn\JJ	.
=143	=143	=143	=143	=143	=143
8E\	8gL 8G/	8EE/L	.	8ggg^^\L	.
8r	8f#J 8F#/	8DD#X/	.	8aaa-X^^\J	.
8E\L	8gL 8G/	8EE/	.	8ggg^^\L	.
8D#X\J	8a-XJ 8A-X/	8FF#/J	.	8fff#^^\J	.
!	!	!	!	!LO:LB:g=original	!
=144	=144	=144	=144	=144	=144
4E\	4g 4G/	4EE/	.	8ggg\L	.
.	.	.	.	(16eee'\L	.
.	.	.	.	16eee'\JJ)	.
4E\	4g 4G/	4EE/	.	8ggg\L	.
.	.	.	.	16eee\L	.
.	.	.	.	16eee\JJ	.
!LO:LB:g=original	!LO:LB:g=original	!	!	!	!
=145	=145	=145	=145	=145	=145
8E\	8gL 8G/	8EE/L	.	8ggg^^\L	.
8r	8f#J 8F#/	8DD#X/	.	8aaa-X^^\J	.
8E\L	8gL 8G/	8EE/	.	8ggg^^\L	.
8D#X\J	8a-XJ 8A-X/	8FF#/J	.	8fff#^^\J	.
=146	=146	=146	=146	=146	=146
4E\	4g 4G/	4EE/	.	8ggg\L	.
.	.	.	.	(16eee'\L	.
.	.	.	.	16eee'\JJ)	.
4E\	4g 4G/	4E/	.	8ggg\L	.
.	.	.	.	(16eee'\L	.
.	.	.	.	16eee'\JJ)	.
=147	=147	=147	=147	=147	=147
8E#X\	8r	2E#X/	.	8ggg\L	.
8r	8b 8g 8d/	.	.	(16ddd'\L	.
.	.	.	.	16ddd'\JJ)	.
8E#\	8r	.	.	8ddd\L	.
8r	8b 8g 8d/	.	.	(16bb'\L	.
.	.	.	.	16bb'\JJ)	.
=148	=148	=148	=148	=148	=148
8F#\	8r	4F#/	.	8bb\L	.
8r	8b 8f# 8d/	.	.	(16ff#'\L	.
.	.	.	.	16ff#'\JJ)	.
8FF#/	8r	4FF#/	.	8ff#\L	.
8r	8b 8f# 8d/	.	.	(16dd'\L	.
.	.	.	.	16dd'\JJ)	.
=149	=149	=149	=149	=149	=149
8EE#\	8r<	2EE#X/	.	8gg\L	.
8rEE	8B< 8G< 8D</	.	.	(16dd'\L	.
.	.	.	.	16dd'\JJ)	.
8EE#\	8r<	.	.	8dd\L	.
8rEE	8B< 8G< 8D</	.	.	(16b'\L	.
.	.	.	.	16b'\JJ)	.
!	!	!LO:LB:g=original	!	!	!
=150	=150	=150	=150	=150	=150
8FF#\	8r<	2FF#/	.	8b/L	.
8rEE	8B< 8F#< 8D</	.	.	(16f#'/L	.
.	.	.	.	16f#'/JJ)	.
8FFF#\	8r<	.	.	8f#/L	.
8rEE	8B< 8F#< 8D</	.	.	(16d'/L	.
.	.	.	.	16d'/JJ)	.
!	!	!	!	!LO:LB:g=original	!
=151	=151	=151	=151	=151	=151
!	!	!LO:TX:t=P:problem:arpeggio z prawej strony	!	!	!
16FF#LL 16FFF#\	16F#</LL	4B: 4D: 4FF#:\	.	4f#/	.
16GG\	16G</	.	.	.	.
16GG#X\	16G#X</	.	.	.	.
16AA\JJ	16A</JJ	.	.	.	.
16AA#X\LL	16A#X</LL	4r	.	4r	.
16BB\	16B</	.	.	.	.
16C\	16c</	.	.	.	.
16C#X\JJ	16c#X</JJ	.	.	.	.
=152	=152	=152	=152	=152	=152
!	!	!LO:TX:a:t=2	!	!LO:TX:a:t=2	!
16D\LL	16d/LL	2r	.	2r	.
16D#X\	16d#X/	.	.	.	.
16E\	16e/	.	.	.	.
16E#X\JJ	16e#X/JJ	.	.	.	.
16F#\LL	16f#/LL	.	.	.	.
16G\	16g/	.	.	.	.
16G#X\	16g#X/	.	.	.	.
16A\JJ	16a/JJ	.	.	.	.
=153	=153	=153	=153	=153	=153
!	!	!LO:TX:t=P:problem:skreślone takty [4]	!	!	!
16A#X\LL	16a#X\LL	2r	.	2r	.
16B\	16b\	.	.	.	.
16c\	16cc\	.	.	.	.
16c#X\JJ	16cc#X\JJ	.	.	.	.
16d\LL	16dd\LL	.	.	.	.
16d#X\	16dd#X\	.	.	.	.
16e\	16ee\	.	.	.	.
16e#X\JJ	16ee#X\JJ	.	.	.	.
!LO:LB:g=original	!LO:LB:g=original	!LO:PB:g=original	!	!	!
=154	=154	=154	=154	=154	=154
*clefG2	*	*	*	*	*
!	!	!LO:TX:a:t=pizz.:dur=2q:ext=cd:problem:text with extention lines	!	!LO:TX:a:t=pizz.:dur=6q:ext=ut:problem:text with extention lines	!
16f#/LL	16ff#\LL	8B 8F#\	.	8dd 8f#'/	.
16g/	16gg\	.	.	.	.
16e#X/	16ee#X\	8r	.	8r	.
16g/JJ	16gg\JJ	.	.	.	.
16f#/LL	16ff#\LL	8A#X 8F#\	.	8cc#X 8f#'/	.
16a#X/	16aa#X\	.	.	.	.
16cc#X/	16ccc#X\	8r	.	8r	.
16ff#/JJ	16fff#\JJ	.	.	.	.
=155	=155	=155	=155	=155	=155
*	*	*clefC4	*	*	*
16a#X/LL	16aa#X\LL	8r	.	8ff#L 8dd\	.
16b/	16bb\	.	.	.	.
16dd/	16ddd\	8b\	.	8ff#J 8dd\	.
16ee#X/JJ	16eee#X\JJ	.	.	.	.
!LO:SIC:v:s=16cc#	!	!	!	!	!
16cc/LL	16ccc#X\LL	4a#X\	.	4ff# 4cc#X\	.
16ff#/	16fff#\	.	.	.	.
!LO:SIC:v:s=16cc#	!	!	!	!	!
16cc/	16ccc#\	.	.	.	.
16f#/JJ	16ff#\JJ	.	.	.	.
=156	=156	=156	=156	=156	=156
16f#/LL	16ff#\LL	8r	.	8ddL 8b-X\	.
16g/	16gg\	.	.	.	.
16b-X/	16bb-X\	8g\	.	8ddJ 8b-\	.
16cc#X/JJ	16ccc#X\JJ	.	.	.	.
16a/LL	16aa\LL	4f#\	.	4dd 4a\	.
16dd/	16ddd\	.	.	.	.
16a/	16aa\	.	.	.	.
16d/JJ	16dd\JJ	.	.	.	.
=157	=157	=157	=157	=157	=157
16d/LL	16dd\LL	8r	.	8b-XL 8g-X/	.
16e-X/	16ee-X\	.	.	.	.
16f#/	16ff#\	8e-X\	.	8b-J 8g-/	.
16a/JJ	16aa\JJ	.	.	.	.
16fn/LL	16ffn\LL	4d\	.	4b- 4fn/	.
16b-X/	16bb-X\	.	.	.	.
16f/	16ff\	.	.	.	.
16B-X/JJ	16b-X\JJ	.	.	.	.
=158	=158	=158	=158	=158	=158
16A#X/LL	16a#X\LL	8r	.	8f#XL 8d/	.
16Bn/	16bn\	.	.	.	.
16d/	16dd\	8B\	.	8f#J 8d/	.
16e#X/JJ	16ee#X\JJ	.	.	.	.
!LO:SIC:v:s=16c#	!LO:SIC:v:s=16cc#	!	!	!	!
16c/LL	16cc\LL	8A#X\	.	4f# 4c#X/	.
16f#/	16ff#\	.	.	.	.
!LO:SIC:v:s=16c#	!LO:SIC:v:s=16cc#	!	!	!	!
16c/	16cc\	8r	.	.	.
16F#/JJ	16f#\JJ	.	.	.	.
=159	=159	=159	=159	=159	=159
*	*	*clefF4	*	*	*
16f#/LL	16ff#\LL	8BB/	.	8bL 8B/	.
16d/	16dd\	.	.	.	.
16b/	16bb\	8r	.	8ddJ 8d/	.
16f#/JJ	16ff#\JJ	.	.	.	.
16e#X/LL	16ee#X\LL	8BB/	.	8r	.
16c#X/	16cc#X\	.	.	.	.
16a#X/	16aa#X\	8r	.	8cc#X 8c#X/	.
16e#/JJ	16ee#\JJ	.	.	.	.
!LO:LB:g=original	!LO:LB:g=original	!	!	!	!
=160	=160	=160	=160	=160	=160
16e/LL	16een\LL	8BB/	.	8r	.
16c/	16ccn\	.	.	.	.
16a/	16aa\	8r	.	8an 8An/	.
16e/JJ	16ee\JJ	.	.	.	.
16d#X/LL	16dd#X\LL	8BB\L	.	8r	.
16B/	16b\	.	.	.	.
16g#X/	16gg#X\	8B'\J	.	8b/	.
16d#/JJ	16dd#\JJ	.	.	.	.
!	!	!	!	!LO:LB:g=original	!
=161	=161	=161	=161	=161	=161
16dn/LL	16dd\LL	8BB\L	.	8r	.
16B-X/	16b-X\	.	.	.	.
16gn/	16gg\	8A#X\J	.	8a#X/	.
16d/JJ	16dd\JJ	.	.	.	.
*clefF4	*	*	*	*	*
16c#X\LL	16cc#X\LL	8BB\L	.	8r	.
16A\	16a\	.	.	.	.
16f#\	16ff#\	8An\J	.	8an/	.
16c#\JJ	16cc#\JJ	.	.	.	.
!	!	!LO:LB:g=original	!	!	!
=162	=162	=162	=162	=162	=162
16cn\LL	16ccn\LL	8BB\L	.	8r	.
16A-X\	16a-X\	.	.	.	.
16fn\	16ffn\	8G#X\J	.	8g#X/	.
16c\JJ	16cc\JJ	.	.	.	.
16B\LL	16b\LL	8BB\L	.	8r	.
16G\	16g\	.	.	.	.
16e\	16ee\	8Gn\J	.	8gn/	.
16B\JJ	16b\JJ	.	.	.	.
=163	=163	=163	=163	=163	=163
16A#XLL 16FF#\	16a#X\LL	8BB/L	.	8f#L 8d/	.
16B\	16b\	.	.	.	.
16d\	16dd\	8BB/J	.	8f#J 8d/	.
16e#X\JJ	16ee#X\JJ	.	.	.	.
16c#X\LL	16cc#X\LL	4AA#X/	.	4f# 4c#X/	.
16f#\	16ff#\	.	.	.	.
16c#\	16cc#\	.	.	.	.
16F#\JJ	16f#\JJ	.	.	.	.
!LO:LB:g=original	!LO:LB:g=original	!	!	!	!
=164	=164	=164	=164	=164	=164
16B\LL	16b\LL	8BB/L	.	8r	.
16G\	16g\	.	.	.	.
16e\	16ee\	8G/	.	8g/	.
16B\JJ	16b\JJ	.	.	.	.
16B\LL	16b\LL	8BB/	.	8r	.
16G\	16g\	.	.	.	.
16e\	16ee\	8G/J	.	8g/	.
16B\JJ	16b\JJ	.	.	.	.
=165	=165	=165	=165	=165	=165
16A#XLL 16FF#\	16a#X\LL	8BB/L	.	8f#L 8d/	.
16B\	16b\	.	.	.	.
16d\	16dd\	8BB/J	.	8f#J 8d/	.
16e#X\JJ	16ee#X\JJ	.	.	.	.
16c#X\LL	16cc#X\LL	4AA#X/	.	4f# 4c#X/	.
16f#\	16ff#\	.	.	.	.
16c#\	16cc#\	.	.	.	.
16F#\JJ	16f#\JJ	.	.	.	.
=166	=166	=166	=166	=166	=166
16B\LL	16b\LL	8BB/L	.	8r	.
16G\	16g\	.	.	.	.
16e\	16ee\	8G/J	.	8g/	.
16B\JJ	16b\JJ	.	.	.	.
16B\LL	16b\LL	8BB/L	.	8r	.
16G\	16g\	.	.	.	.
16e\	16ee\	8GG/J	.	8g/	.
16B\JJ	16b\JJ	.	.	.	.
=167	=167	=167	=167	=167	=167
16d\LL	16dd\LL	8FF#/	.	8b 8B/	.
16g\	16gg\	.	.	.	.
16B\	16b\	8r	.	8r	.
16d\JJ	16dd\JJ	.	.	.	.
16c#X\LL	16cc#X\LL	8FF#/	.	8a#X 8A#X/	.
16f#\	16ff#\	.	.	.	.
16A#X\	16a#X\	8r	.	8r	.
16c#\JJ	16cc#\JJ	.	.	.	.
=168	=168	=168	=168	=168	=168
16cn\LL	16ccn\LL	8FF#/	.	8an 8An/	.
16fn\	16ffn\	.	.	.	.
16An\	16an\	8r	.	8r	.
16c\JJ	16cc\JJ	.	.	.	.
16B\LL	16b\LL	8FF#/	.	8g#X 8G#X/	.
16e\	16ee\	.	.	.	.
16G#X\	16g#X\	8r	.	8r	.
16B\JJ	16b\JJ	.	.	.	.
!	!	!	!	!LO:LB:g=original	!
=169	=169	=169	=169	=169	=169
16B-X\LL	16b-X\LL	8FF#/	.	8gn 8Gn/	.
16e-X\	16ee-X\	.	.	.	.
16Gn\	16gn\	8r	.	8r	.
16B-\JJ	16b-\JJ	.	.	.	.
16A\LL	16a\LL	8F# 8FF#/	.	8f#/	.
16d\	16dd\	.	.	.	.
16F#\	16f#\	8r	.	8r	.
16A\JJ	16a\JJ	.	.	.	.
!	!	!LO:LB:g=original	!	!	!
=170	=170	=170	=170	=170	=170
16G#X\LL	16g#X\LL	8E#X 8FF#\	.	8e#X/	.
16c#X\	16cc#X\	.	.	.	.
16E#X\	16e#X\	8r	.	8r	.
16G#\JJ	16g#\JJ	.	.	.	.
16Gn\LL	16gn\LL	8En 8FF#\	.	8en/	.
16cn\	16ccn\	.	.	.	.
16En\	16en\	8r	.	8r	.
16G\JJ	16g\JJ	.	.	.	.
=171	=171	=171	=171	=171	=171
!	!	!LO:TX:a:i:t=arco.	!LO:DY:a:t=f.	!LO:TX:b:i:t=arco	!
16D#XLL 16BBB/	16d#XLL 16B/	8EE/L	f	8G/L	.
16E/	16e/	.	.	.	.
16G/	16g/	8EE/J	.	8B/J	.
16A#X/JJ	16a#X/JJ	.	.	.	.
16F#\LL	16f#/LL	4DD#X/	.	4B/	.
16B\	16b/	.	.	.	.
16F#\	16f#/	.	.	.	.
16BB\JJ	16B/JJ	.	.	.	.
!LO:LB:g=original	!LO:LB:g=original	!	!	!	!
=172	=172	=172	=172	=172	=172
16G\LL	16g/LL	2EE/	.	2c^^</	.
16c\	16cc/	.	.	.	.
16E\	16e/	.	.	.	.
16G\JJ	16g/JJ	.	.	.	.
16G\LL	16g/LL	.	.	.	.
16c\	16cc/	.	.	.	.
16E\	16e/	.	.	.	.
16G\JJ	16g/JJ	.	.	.	.
=173	=173	=173	=173	=173	=173
16D#XLL 16BBB\	16d#XLL 16B/	8EE/L	.	8G/L	.
16E\	16e/	.	.	.	.
16G\	16g/	8EE/J	.	8B/J	.
16A#X\JJ	16a#X/JJ	.	.	.	.
16F#\LL	16f#/LL	4DD#X/	.	4B/	.
16B\	16b/	.	.	.	.
16F#\	16f#/	.	.	.	.
16BB\JJ	16B/JJ	.	.	.	.
=174	=174	=174	=174	=174	=174
16c\LL	16cc\LL	2GG/	.	2e^^</	.
16e\	16ee\	.	.	.	.
16G\	16g\	.	.	.	.
16A#X\JJ	16a#X\JJ	.	.	.	.
16c\LL	16cc\LL	.	.	.	.
16e\	16ee\	.	.	.	.
16G\	16g\	.	.	.	.
16A#\JJ	16a#\JJ	.	.	.	.
*clefG2	*	*	*	*	*
=175	=175	=175	=175	=175	=175
!	!	!	!	!LO:TX:b:i:t=marcato	!
16e/LL	16ee\LL	4C^^/	.	4g/	.
16g/	16gg\	.	.	.	.
16A#X/	16a#X\	.	.	.	.
16c/JJ	16cc\JJ	.	.	.	.
16g/LL	16gg\LL	4E^^/	.	4a#X/	.
16a/	16aa#X\	.	.	.	.
16c/	16cc\	.	.	.	.
16e/JJ	16ee\JJ	.	.	.	.
=176	=176	=176	=176	=176	=176
16a#X/LL	16aa#X\LL	4G^^\	.	4cc\	.
16cc/	16ccc\	.	.	.	.
16e/	16ee\	.	.	.	.
16g/JJ	16gg\JJ	.	.	.	.
!	!	!	!	!	!LO:DY:t=f.
16cc/LL	16ccc\LL	4A#X^^\	.	4ee\	f
16ee/	16eee\	.	.	.	.
16g/	16gg\	.	.	.	.
16a#/JJ	16aa#\JJ	.	.	.	.
!LO:PB:g=original	!LO:PB:g=original	!	!	!	!
=177	=177	=177	=177	=177	=177
*	*	*clefG2	*	*	*
16ee\LL	16eee\LL	4cc\	.	4gg\	.
16gg\	16ggg\	.	.	.	.
16a#X\	16aa#X\	.	.	.	.
16cc\JJ	16ccc\JJ	.	.	.	.
16gg\LL	16ggg\LL	4ee\	.	4aa#X\	.
16aa#X\	16aaa#X\	.	.	.	.
16cc\	16ccc\	.	.	.	.
16ee\JJ	16eee\JJ	.	.	.	.
=178	=178	=178	=178	=178	=178
*	*8va	*	*	*	*
16aa\LL	16aaa#X\LL	4gg\	.	4ccc\	.
16ccc\	16cccc\	.	.	.	.
16ee\	16eee\	.	.	.	.
16gg\JJ	16ggg\JJ	.	.	.	.
16ccc\LL	16cccc\LL	4aa#X\	.	4eee\	.
16eee\	16eeee\	.	.	.	.
16gg\	16ggg\	.	.	.	.
16aa\JJ	16aaa#\JJ	.	.	.	.
*	*X8va	*	*	*	*
!	!	!LO:LB:g=original	!	!LO:PB:g=original	!
=179	=179	=179	=179	=179	=179
*	*8va	*tremolo	*	*	*
!	!	!	!	!	!LO:DY:a
8bL 8B/	16r	16bb\LL	.	16bb\LL	f
!	!	!	!LO:DY:t=ff.	!	!
.	8bbbL 8bb\	16bb\JJ	ff	16bb\	.
8cc 8c/	.	16ccc\LL	.	16ccc\	.
.	8cccc 8ccc\	16ccc\JJ	.	16ccc\JJ	.
8b 8B/	.	16bb\LL	.	16bb\LL	.
.	8bbb 8bb\	16bb\JJ	.	16bb\	.
8a#XJ 8A#X/	.	16aa#X\LL	.	16aa#X\	.
.	16aaa#XJk 16aa#X\	16aa#\JJ	.	16aa#\JJ	.
=180	=180	=180	=180	=180	=180
8bL 8B/	16r	16bb\LL	.	16bb\LL	.
.	8bbbL 8bb\	16bb\JJ	.	16bb\	.
8gJ 8G/	.	16gg\LL	.	16gg\	.
.	8ggg 8gg\	16gg\JJ	.	16gg\JJ	.
8bL 8B/	.	16bb\LL	.	16bb\LL	.
.	8bbb 8bb\	16bb\JJ	.	16bb\	.
8gJ 8G/	.	16gg\LL	.	16gg\	.
.	16gggJk 16gg\	16gg\JJ	.	16gg\JJ	.
*	*X8va	*	*	*	*
=181	=181	=181	=181	=181	=181
!	!LO:TX:a:t=loco.	!	!	!	!
8ggL 8g\	16r	16b\LL	.	16b\LL	.
.	8bbL 8b\	16b\JJ	.	16b\	.
8aa 8a\	.	16cc\LL	.	16cc\	.
.	8ccc 8cc\	16cc\JJ	.	16cc\JJ	.
8gg 8g\	.	16b\LL	.	16b\LL	.
.	8bb 8b\	16b\JJ	.	16b\	.
8ff#XJ 8f#X\	.	16a#X\LL	.	16a#X\	.
.	16aa#XJk 16a#X\	16a#\JJ	.	16a#\JJ	.
=182	=182	=182	=182	=182	=182
8ggL 8g\	16r	16b\LL	.	16b\LL	.
.	8bbL 8b\	16b\JJ	.	16b\	.
8eeJ 8e\	.	16g\LL	.	16g\	.
.	8ggJ 8g\	16g\JJ	.	16g\JJ	.
8ggL 8g\	.	16b\LL	.	16b\LL	.
.	8bbL 8b\	16b\JJ	.	16b\	.
8eeJ 8e\	.	16g\LL	.	16g\	.
.	16ggJk 16g\	16g\JJ	.	16g\JJ	.
!LO:LB:g=original	!LO:LB:g=original	!	!	!	!
=183	=183	=183	=183	=183	=183
*clefF4	*	*	*	*	*
8gL 8G\	16r	16gg\LL	.	16gg\LL	.
.	8gggL 8gg\	16gg\JJ	.	16gg\	.
8a-X 8A-X\	.	16aa-X\LL	.	16aa-X\	.
.	8aaa-X 8aa-X\	16aa-\JJ	.	16aa-\JJ	.
8g 8G\	.	16gg\LL	.	16gg\LL	.
.	8ggg 8gg\	16gg\JJ	.	16gg\	.
16f#Jk 16F#\	.	16ff#X\LL	.	16ff#\	.
16ryy	16fff#Jk 16ff#\	16ff#\JJ	.	16ff#\JJ	.
=184	=184	=184	=184	=184	=184
8gL 8G\	16r	16gg\LL	.	16gg\LL	.
.	8gggL 8gg\	16gg\JJ	.	16gg\	.
8e-X 8E-X\	.	16ee-X\LL	.	16ee-X\	.
.	8eee-X 8ee-X\	16ee-\JJ	.	16ee-\JJ	.
8g 8G\	.	16gg\LL	.	16gg\LL	.
.	8ggg 8gg\	16gg\JJ	.	16gg\	.
8e-J 8E-\	.	16ee-\LL	.	16ee-\	.
.	16eee-Jk 16ee-\	16ee-\JJ	.	16ee-\JJ	.
!	!	!LO:LB:g=original	!	!	!
=185	=185	=185	=185	=185	=185
*	*	*	*	*tremolo	*
8GL 8GG\	16r	16g/LL	.	16g/LL	.
.	8ggL 8g\	16g/JJ	.	16g/JJ	.
8A-X 8AA-X\	.	16a-X/LL	.	16a-X/LL	.
.	8aa-X 8a-X\	16a-/JJ	.	16a-/JJ	.
8G 8GG\	.	16g/LL	.	16g/LL	.
.	8gg 8g\	16g/JJ	.	16g/JJ	.
8F#J 8FF#\	.	16f#/LL	.	16f#/LL	.
.	16ff#Jk 16f#\	16f#/JJ	.	16f#/JJ	.
=186	=186	=186	=186	=186	=186
8GL 8GG\	16r	16g/LL	.	16g/LL	.
.	8ggL 8g\	16g/JJ	.	16g/JJ	.
8E-X 8EE-X\	.	16e-X/LL	.	16e-X/LL	.
.	8ee-X 8e-X\	16e-/JJ	.	16e-/JJ	.
8G 8GG\	.	16g/LL	.	16g/LL	.
.	8gg 8g\	16g/JJ	.	16g/JJ	.
8E-J 8EE-\	.	16e-/LL	.	16e-/LL	.
.	16ee-Jk 16e-\	16e-/JJ	.	16e-/JJ	.
*	*	*Xtremolo	*	*Xtremolo	*
!	!	!	!	!LO:LB:g=original	!
=187	=187	=187	=187	=187	=187
!	!	!LO:TX:a:t=2	!	!LO:TX:a:t=2	!
4G 4GG\	4gg 4g\	2r	.	2r	.
4D 4DD\	4dd 4d\	.	.	.	.
=188	=188	=188	=188	=188	=188
8E-yL 8EE-y\	8ee-XL 8e-X\	2r	.	2r	.
8D 8DD\	8dd 8d\	.	.	.	.
8CJ 8CC\	8ccJ 8c\	.	.	.	.
8r	8r	.	.	.	.
*clefG2	*	*clefF4	*	*	*
=189	=189	=189	=189	=189	=189
*	*	*tremolo	*	*	*
4d/	4dd\	16D\LL	.	16d/LL	.
.	.	16D\JJ	.	16d/	.
.	.	16E-X\LL	.	16e-X/	.
.	.	16E-\JJ	.	16e-/JJ	.
8e-X/L	8ee-X\L	16D\LL	.	16d/LL	.
.	.	16D\JJ	.	16d/	.
8f#/J	8ff#\J	16C\LL	.	16c/	.
.	.	16C\JJ	.	16c/JJ	.
!LO:LB:g=original	!LO:LB:g=original	!	!	!	!
=190	=190	=190	=190	=190	=190
16f#/LL	16ff#\LL	16BB\LL	.	16B/LL	.
16g/JJ	16gg\JJ	16BB\JJ	.	16B/	.
4g/	4gg\	16GG\LL	.	16G/	.
.	.	16GG\JJ	.	16G/JJ	.
.	.	16BB\LL	.	16B/LL	.
.	.	16BB\JJ	.	16B/	.
8g/	8gg\	16GG\LL	.	16G/	.
.	.	16GG\JJ	.	16G/JJ	.
*	*	*Xtremolo	*	*	*
=191	=191	=191	=191	=191	=191
!	!	!LO:TX:a:t=2	!	!LO:TX:a:t=2	!
4gg 4g\	4bb 4b\	2r	.	2r	.
4dd 4d\	4ff# 4f#\	.	.	.	.
=192	=192	=192	=192	=192	=192
8eeL 8e\	8ggL 8g\	2r	.	2r	.
8dd 8d\	8ff# 8f#\	.	.	.	.
8ccJ 8c\	8eeJ 8e\	.	.	.	.
8r	8r	.	.	.	.
!	!	!LO:LB:g=original	!	!	!
=193	=193	=193	=193	=193	=193
*	*	*tremolo	*	*	*
4f#/	4ff#\	16F#\LL	.	16f#/LL	.
.	.	16F#\JJ	.	16f#/	.
.	.	16G\LL	.	16g/	.
.	.	16G\JJ	.	16g/JJ	.
8g/L	8gg\L	16F#\LL	.	16f#/LL	.
.	.	16F#\JJ	.	16f#/	.
8a#X/J	8aa#X\J	16E\LL	.	16e/	.
.	.	16E\JJ	.	16e/JJ	.
=194	=194	=194	=194	=194	=194
16a#X/LL	16aa#X\LL	16D\LL	.	16d/LL	.
16b/JJ	16bb\JJ	16D\JJ	.	16d/	.
4b/	4bb\	16BB\LL	.	16B/	.
.	.	16BB\JJ	.	16B/JJ	.
.	.	16D\LL	.	16d/LL	.
.	.	16D\JJ	.	16d/	.
8b/	8bb\	16BB\LL	.	16B/	.
.	.	16BB\JJ	.	16B/JJ	.
*	*	*Xtremolo	*	*	*
=195	=195	=195	=195	=195	=195
16f#/LL	16ff#\LL	4D^^\	.	4d^^</	.
16g/	16gg\	.	.	.	.
16b-X/	16bb\	.	.	.	.
16cc#X/JJ	16ccc#X\JJ	.	.	.	.
16dd/LL	16ddd\LL	4AA^^\	.	4A^^</	.
16a/J	16aa\J	.	.	.	.
8f#/J	8ff#\J	.	.	.	.
=196	=196	=196	=196	=196	=196
16d/LL	16dd\LL	8BB-X^^</L	.	8B-X^^</L	.
16e-X/	16ee-X\	.	.	.	.
16f#/	16ff#\	8AA^^</	.	8A^^</	.
16a/JJ	16aa\JJ	.	.	.	.
16b-X/LL	16bb-X\LL	8GG^^</J	.	8G^^</J	.
16g/J	16gg\J	.	.	.	.
8d/J	8dd\J	8r	.	8r	.
*clefF4	*	*	*	*	*
!LO:LB:g=original	!LO:LB:g=original	!	!	!LO:LB:g=original	!
=197	=197	=197	=197	=197	=197
16c#X\LL	16cc#X\LL	4AA/	.	4A/	.
16d\	16dd\	.	.	.	.
16e-X\	16ee-X\	.	.	.	.
!	!	!	!	!	!LO:DY:a:t=f.
16f#\JJ	16ff#\JJ	.	.	.	f
16c#\LL	16cc#\LL	8BB-X/L	.	8B-X/L	.
16g\	16gg\	.	.	.	.
16c#\	16cc#\	8C#X/J	.	8c#X/J	.
16G\JJ	16g\JJ	.	.	.	.
=198	=198	=198	=198	=198	=198
16F#\LL	16f#\LL	(16C#X/LL	.	(16c#X/LL	.
16G\	16g\	16D/JJ)	.	16d/JJ)	.
16B-X\	16b-X\	4D/	.	4d^^</	.
16c#X\JJ	16cc\JJ	.	.	.	.
16F#\LL	16f#\LL	.	.	.	.
16d\	16dd\	.	.	.	.
16F#\	16f#\	8D/	.	8d/	.
16D\JJ	16d\JJ	.	.	.	.
=199	=199	=199	=199	=199	=199
16B\LL	16b\LL	4GG^^</	.	4g^^</	.
16c\	16cc\	.	.	.	.
16e-X\	16ee-X\	.	.	.	.
16f#\JJ	16ff#\JJ	.	.	.	.
16g\LL	16gg\LL	4DD^^</	.	4d^^</	.
16d\J	16dd\J	.	.	.	.
8B\J	8b\J	.	.	.	.
!	!	!LO:LB:g=original	!	!	!
=200	=200	=200	=200	=200	=200
16G\LL	16g\LL	8EE-X/L	.	8e-X^^</L	.
16A-X\	16a-X\	.	.	.	.
16B\	16b\	8DD/	.	8d^^</	.
16d\JJ	16dd\JJ	.	.	.	.
16e-X\LL	16ee-X\LL	8CC/J	.	8c^^</J	.
16c\J	16cc\J	.	.	.	.
8G\J	8g\J	8r	.	8r	.
=201	=201	=201	=201	=201	=201
16F#\LL	16f#\LL	4DD^^/	.	(4d^^</	.
16G\	16g\	.	.	.	.
16A-X\	16a-X\	.	.	.	.
16B\JJ	16b\JJ	.	.	.	.
16F#\LL	16f#\LL	8EE-X/L	.	8e-X/L)	.
16c\	16cc\	.	.	.	.
16F#\	16f#\	8FF#/J	.	8f#'/J	.
16C\JJ	16c\JJ	.	.	.	.
=202	=202	=202	=202	=202	=202
16E-X\LL	16e-X/LL	(16FF#/LL	.	(16f#/LL	.
16C\	16c/	16GG/JJ)	.	16g/JJ)	.
16E-\	16e-/	4GG/	.	4g^^</	.
16C\JJ	16c/JJ	.	.	.	.
16E-\LL	16e-/LL	.	.	.	.
16C\	16c/	.	.	.	.
16E-\	16e-/	8GG/	.	8g/	.
16C\JJ	16c/JJ	.	.	.	.
!LO:LB:g=original	!LO:LB:g=original	!	!	!	!
=203	=203	=203	=203	=203	=203
16F#\LL	16f#\LL	4DD/	.	(4d/	.
16G\	16g\	.	.	.	.
16A-X\	16a-X\	.	.	.	.
16B\JJ	16b\JJ	.	.	.	.
16F#\LL	16f#\LL	8EE-X/L	.	8e-X/L)	.
16c\	16cc\	.	.	.	.
16F#\	16f#\	8FF#/J	.	8f#'/J	.
16C\JJ	16c\JJ	.	.	.	.
=204	=204	=204	=204	=204	=204
16E-X\LL	16e-X/LL	(16FF#/LL	.	(16f#/LL	.
16C\	16c/	16GG/JJ)	.	16g/JJ)	.
16E-\	16e-/	4GG/	.	4g^^</	.
16C\JJ	16c/JJ	.	.	.	.
16E-\LL	16e-/LL	.	.	.	.
16C\	16c/	.	.	.	.
16E-\	16e-/	8GG/	.	8g/	.
16C\JJ	16c/JJ	.	.	.	.
=205	=205	=205	=205	=205	=205
16D\LL	16d/LL	4DD/	.	4d^^</	.
16C\	16c/	.	.	.	.
!	!	!	!LO:DY:a:t=ff.	!	!
16E-X\	16e-X/	.	ff	.	.
16F#\JJ	16f#/JJ	.	.	.	.
16E-\LL	16e-/LL	4GG/	.	4g^^</	.
16c\	16cc/	.	.	.	.
16G\	16g/	.	.	.	.
16c\JJ	16cc/JJ	.	.	.	.
*clefG2	*	*	*	*	*
!	!	!	!	!LO:LB:g=original	!
=206	=206	=206	=206	=206	=206
16d/LL	16dd\LL	4D\	.	4dd^^\	.
16c/	16cc\	.	.	.	.
16e-X/	16ee-X\	.	.	.	.
16f#/JJ	16ff#\JJ	.	.	.	.
16e-/LL	16ee-\LL	4G\	.	4gg^^\	.
16cc/	16ccc\	.	.	.	.
16g/	16gg\	.	.	.	.
16cc/JJ	16ccc\JJ	.	.	.	.
!	!	!LO:LB:g=original	!	!	!
=207	=207	=207	=207	=207	=207
16dd\LL	16ddd\LL	4d\	.	4ddd^^\	.
16cc\	16ccc\	.	.	.	.
16ee-X\	16eee-X\	.	.	.	.
16ff#\JJ	16fff#\JJ	.	.	.	.
8ee-L 8e-X\	16r	4r	.	4r	.
*	*8va	*	*	*	*
.	8ffff#L 8eeee-\	.	.	.	.
*	*X8va	*	*	*	*
8ff#J 8ee-\	.	.	.	.	.
.	16fff#Jk 16eee-\	.	.	.	.
*clefF4	*	*	*	*	*
!LO:LB:g=original	!LO:LB:g=original	!	!	!	!
=208	=208	=208	=208	=208	=208
8e-XL 8E-X\	16r	2r	.	2r	.
.	8fff#L 8eee-X\	.	.	.	.
8f#J 8e-\	.	.	.	.	.
.	16ff#Jk 16ee-X\	.	.	.	.
8E-L 8EE-X/	16r	.	.	.	.
.	8ff#L 8ee-\	.	.	.	.
8F#J 8E-/	.	.	.	.	.
.	16f#Jk 16e-y\	.	.	.	.
=209	=209	=209	=209	=209	=209
!LO:TX:t=P:problem:mixed beam	!	!	!	!	!
8GGL 8GGG/	4b 4g\	4G\	.	4gg^^\	f
8dJ 8G\	.	.	.	.	.
8GG\L	4b 4d\	4G\	.	4dd^^\	.
8BJ 8D\	.	.	.	.	.
=210	=210	=210	=210	=210	=210
8CC\L	8a-XL 8e-X\	4C/	.	8ee-X\L	.
8cJ 8C\	8a-J 8d\	.	.	8dd\J	.
8DD\L	4a- 4c\	4D/	.	4cc\	.
8cJ 8D\	.	.	.	.	.
=211	=211	=211	=211	=211	=211
8EE-X\L	16gLL 16B/	4E-X/	.	16b\LL	.
.	16c/	.	.	16cc\	.
8GJ 8E-X\	16e-X/	.	.	16ee-X\	.
.	16g/JJ	.	.	16gg\JJ	.
!LO:TX:t=P:problem:mixed beam	!	!	!	!	!
8EEE-X/L	4b 4g/	4EE-X/	.	4bb\	.
8GJ 8E-\	.	.	.	.	.
=212	=212	=212	=212	=212	=212
8BBL 8BBB/	16ddLL 16g\	2GG/	.	(16gg\LL	.
.	16b\	.	.	16bb\)	.
8GG 8GGG/	16dd 16b\	.	.	(16ddd\	.
.	16b\JJ	.	.	16bb\JJ)	.
8BB 8BBB/	4b 4g\	.	.	4gg\	.
8DJ 8DD/	.	.	.	.	.
=213	=213	=213	=213	=213	=213
8GL 8GG\	4b 4d\	4B\	.	4dd\	.
8BJ 8G\	.	.	.	.	.
8E-XL 8EE-X\	8ccL 8e-X\	8c\L	.	8ee-X\L	.
8GJ 8GG\	8bJ 8d\	8B\J	.	8dd'\J	.
!LO:LB:g=original	!LO:LB:g=original	!	!	!	!
=214	=214	=214	=214	=214	=214
8GL 8E-X\	16gLL 16B/	4G\	.	16b\LL	.
.	16c/	.	.	16cc\	.
8cJ 8C\	16e-X/	.	.	16ee-X\	.
.	16f#/JJ	.	.	16ff#\JJ	.
!LO:TX:t=P:problem:mixed beam	!	!	!	!	!
8dL 8BB/	16g/LL	4G\	.	(16gg\LL	.
.	16d/J	.	.	16dd\J	.
8BBB\J	8B/J	.	.	8b\J)	.
=215	=215	=215	=215	=215	=215
8GL 8GG\	4b 4d\	4B\	.	4dd\	.
8BJ 8G\	.	.	.	.	.
8E-XL 8EE-X\	8ccL 8e-X\	8c\L	.	8ee-X\L	.
8GJ 8GG\	8bJ 8d\	8B\J	.	8dd'\J	.
!	!	!LO:LB:g=original	!	!LO:LB:g=original	!
=216	=216	=216	=216	=216	=216
8GL 8E-X\	16gLL 16B/	4G\	.	16b\LL	.
.	16c/	.	.	16cc\	.
8cJ 8C\	16e-X/	.	.	16ee-X\	.
.	16f#/JJ	.	.	16ff#\JJ	.
!LO:TX:t=P:problem:mixed beam	!	!	!	!	!
8dL 8BB\	16g/LL	4G\	.	(16gg\LL	.
.	16d/J	.	.	16dd\J)	.
8BBB/J	8B/J	.	.	8b\J	.
=217	=217	=217	=217	=217	=217
4.FF# 4.FFF#/	16f#LL 16B/	4.F#\	.	16b\LL	.
.	16c#X/	.	.	16cc#X\	.
.	16d/	.	.	16dd\	.
.	16f#/JJ	.	.	16ff#\JJ	.
.	16b\LL	.	.	8bb\L	.
.	16ddd\	.	.	.	.
8f#\	16dd\	8d\	.	8ff#\J	.
.	16bb\JJ	.	.	.	.
=218	=218	=218	=218	=218	=218
8d\L	16b\LL	8B\L	.	8dd\L	.
.	16ff#\	.	.	.	.
8B\	16f#\	8F#\J	.	8b\J	.
.	16dd\JJ	.	.	.	.
8F#\	16d\LL	8D\L	.	8f#\L	.
.	16b\	.	.	.	.
8D\J	16B\	8BB\J	.	8d\J	.
.	16f#\JJ	.	.	.	.
=219	=219	=219	=219	=219	=219
4BB\	16B/LL	(2FF#/	.	16c#X/LL	.
.	16G/	.	.	16B/	.
.	16B/	.	.	16d/	.
.	16d/JJ	.	.	16e#X/JJ	.
8AA#X\L	8c#X/L	.	.	8f#/L	.
8FF#\J	8F#/J	.	.	8A#X/J	.
!LO:LB:g=original	!LO:LB:g=original	!	!	!	!
=220	=220	=220	=220	=220	=220
4BBB\	4F#X< 4D</	4BB/)	.	4B/	.
8f# 8B\	8bb 8dd 8b\	4r	.	4r	.
8r	8r	.	.	.	.
=221	=221	=221	=221	=221	=221
!	!	!	!LO:DY:a:t=p.	!	!
2G\	8e#X/L	(>2BB/	p	(2bb\	.
.	8g/	.	.	.	.
.	8b/	.	.	.	.
.	8dd/J	.	.	.	.
=222	=222	=222	=222	=222	=222
2B\	4ee#X\	2GG/)	.	8ddd\L	.
.	.	.	.	8ccc#X\	.
.	4dd\	.	.	8bb\	.
.	.	.	.	8gg\J)	.
=223	=223	=223	=223	=223	=223
8A#X\L	4cc#X\	(8AA#X/L	.	(8ff#\L	.
8c#X\	.	8FF#/	.	8aa#X\	.
8f#\	8dd\L	8DD/	.	8bb\	.
8d\J	8b\J	8GG/J	.	8gg\J	.
=224	=224	=224	=224	=224	=224
8c#X\L	8a#X\L	8AA#X/L	.	8ff#\L	.
8B\J	8g\J	8BB/	.	8ee#X\	.
4c#\	4a#\	8AA#/	.	8ff#\	.
.	.	8C#X/J)	.	8cc#X\J)	.
!	!	!LO:LB:g=original	!	!LO:LB:g=original	!
=225	=225	=225	=225	=225	=225
8c#X\L	8a#X\L	(8F#\L	.	(8a#X\L	.
8B\	8f#\	8D\)	.	8b\)	.
8B\	8f#\	8D'\	.	8b'\	.
8B\J	8f#\J	8D'\J	.	8b'\J	.
=226	=226	=226	=226	=226	=226
8c#X\L	8a#X\L	(8AA#X/L	.	(8ff#\L	.
8B\	8g\	8BB/)	.	8ee#X\)	.
8B\	8g\	8BB'/	.	8ee#'\	.
8B\J	8g\J	8BB'/J	.	8ee#'\J	.
!LO:PB:g=original	!LO:PB:g=original	!	!	!	!
=227	=227	=227	=227	=227	=227
8c#X\L	4f#/	(8AA#X/L	.	(8ff#\L	.
8d\J	.	8BB/J	.	8dd\	.
4e#X\	4a#X/	4C#X/)	.	8cc#X\	.
.	.	.	.	8ee#X\J)	.
=228	=228	=228	=228	=228	=228
8d\L	4a#X/	(>4D 4FF#/	.	(4aa#X^^\	.
8e#X\J	.	.	.	.	.
8f#\	8A#X/	8C#X/)	.	8ff#\)	.
8r	8r	8r	.	8r	.
=229	=229	=229	=229	=229	=229
2G\	8e#X/L	(2BB/	.	(2bb\	.
.	8g/	.	.	.	.
.	8b/	.	.	.	.
.	8dd/J	.	.	.	.
=230	=230	=230	=230	=230	=230
2B\	4ee#X\	2GG/)	.	8ddd\L	.
.	.	.	.	8ccc#X\	.
.	4dd\	.	.	8bb\	.
.	.	.	.	8gg\J)	.
=231	=231	=231	=231	=231	=231
8A#X\L	4cc#X\	(8AA#X/L	.	(8ff#\L	.
8c#X\	.	8FF#/	.	8aa#X\	.
8f#\	8dd\L	8DD/	.	8bb\	.
8d\J	8b\J	8GG/J	.	8gg\J	.
=232	=232	=232	=232	=232	=232
8c#X\L	8a#X\L	8AA#X/L	.	8ff#\L	.
8B\J	8g\J	8BB/	.	8ee#X\	.
4c#\	4a#\	8AA#/	.	8ff#\	.
.	.	8C#X/J)	.	8cc#X\J)	.
!	!	!LO:PB:g=original	!	!	!
=233	=233	=233	=233	=233	=233
(8c#X\L	(8a#X\L	(8F#\L	.	(8a#X\L	.
!	!LO:TX:t=P:problem:skreślone nuty w takcie nr 233	!	!	!	!
8B\J)	8b\J)	8D\)	.	8b\)	.
8B\L	8b\L	8D'\	.	8b'\	.
8B\J	8b\J	8D'\J	.	8b'\J	.
!LO:LB:g=original	!LO:LB:g=original	!	!	!LO:LB:g=original	!
=234	=234	=234	=234	=234	=234
8d\L	8b\L	(8BB\L	.	(8gg\L	.
8c\J	8a-X\J	8Cn\	.	8ff#\	.
4d\	4b\	8BB\	.	8gg\	.
.	.	8D\J)	.	8dd\J)	.
=235	=235	=235	=235	=235	=235
8d\L	8b\L	(8G\L	.	(8b\L	.
8c\J	8cc\J	8E-X\)	.	8cc\)	.
8c\L	8cc\L	8E-'\	.	8cc'\	.
8c\J	8cc\J	8E-'\J	.	8cc'\J	.
=236	=236	=236	=236	=236	=236
2A-X 2AA-X\	8f#\L	(2C/	.	(2ccc\	.
.	8a-X\	.	.	.	.
.	8cc\	.	.	.	.
.	8ee-X\J	.	.	.	.
=237	=237	=237	=237	=237	=237
4B 4GG\	16dd\LL	8GG/)	.	4bb\)	.
.	16b\JJ	.	.	.	.
.	4g\	8r	.	.	.
4G\	.	4r	.	4r	.
.	8g\	.	.	.	.
=238	=238	=238	=238	=238	=238
16CLL 16CC/	16a-XLL 16f#\	(16e-X\LL	.	(16ff#\LL	.
16BBJJ 16BBB/	16g\JJ	16d\JJ)	.	16gg\JJ)	.
!	!	!	!LO:DY:rj:t=p.	!	!LO:DY:rj
4BB 4BBB/	4g\	4d\	p	4gg\	f
8BB 8BBB/	8g\	8d\	.	8gg\	.
=239	=239	=239	=239	=239	=239
16d\LL	16dd\LL	2r	.	2r	.
16B\JJ	16b\JJ	.	.	.	.
4G\	4g\	.	.	.	.
8G\	8g\	.	.	.	.
=240	=240	=240	=240	=240	=240
16CLL 16CC\	16a-XLL 16f#\	(16e-X\LL	.	(16ff#\LL	.
16BBJJ 16BBB\	16g\JJ	16d\JJ)	.	16gg\JJ)	.
!	!	!	!	!	!LO:DY:t=f.
4BB 4BBB\	4g\	4d\	.	4gg\	f
8BB 8BBB\	8g\	8d\	.	8gg\	.
!LO:LB:g=original	!LO:LB:g=original	!LO:LB:g=original	!	!	!
=241	=241	=241	=241	=241	=241
*tremolo	*tremolo	*	*	*	*
32GGG\LLL	32G</LLL	8GG/L	.	(16fff#\LL	.
32FFF#\	32F#</	.	.	.	.
32GGG\	32G</	.	.	16ggg\JJ)	.
32FFF#\	32F#</	.	.	.	.
!	!	!	!LO:DY:t=f.	!	!LO:DY:t=ff.
32GGG\	32G</	8C/	f	8ggg\	ff
32FFF#\	32F#</	.	.	.	.
32GGG\	32G</	.	.	.	.
32FFF#\	32F#</	.	.	.	.
32GGG\	32G</	8E-X/	.	(16ddd\LL	.
32FFF#\	32F#</	.	.	.	.
32GGG\	32G</	.	.	16eee-X\JJ	.
32FFF#\	32F#</	.	.	.	.
32GGG\	32G</	8G/J	.	8eee-\)	.
32FFF#\	32F#</	.	.	.	.
32GGG\	32G</	.	.	.	.
32FFF#\JJJ	32F#</JJJ	.	.	.	.
=242	=242	=242	=242	=242	=242
32GGG\LLL	32G</LLL	8c\L	.	(16bb\LL	.
32FFF#\	32F#</	.	.	.	.
32GGG\	32G</	.	.	16ccc\JJ	.
32FFF#\	32F#</	.	.	.	.
32GGG\	32G</	8d\J	.	8ccc\)	.
32FFF#\	32F#</	.	.	.	.
32GGG\	32G</	.	.	.	.
32FFF#\	32F#</	.	.	.	.
32GGG\	32G</	4e-X\	.	(16ff#\LL	.
32FFF#\	32F#</	.	.	.	.
32GGG\	32G</	.	.	16gg\JJ	.
32FFF#\	32F#</	.	.	.	.
32GGG\	32G</	.	.	8gg\)	.
32FFF#\	32F#</	.	.	.	.
32GGG\	32G</	.	.	.	.
32FFF#\JJJ	32F#</JJJ	.	.	.	.
!	!	!	!	!LO:LB:g=original	!
=243	=243	=243	=243	=243	=243
32CCLLL 32AAA-X\	32F#<LLL 32C</	(4c\	.	(16dd\LL	.
32AA-X\	32c</	.	.	.	.
!	!	!	!	!	!LO:HP:a
32CC 32AAA-\	32F#< 32C</	.	.	16ee-X\JJ)	>
32AA-\	32c</	.	.	.	.
32CC 32AAA-\	32F#< 32C</	.	.	8ee-'\	.
32AA-\	32c</	.	.	.	.
32CC 32AAA-\	32F#< 32C</	.	.	.	.
32AA-\	32c</	.	.	.	.
32CC 32AAA-\	32F#< 32C</	4A-X\)	.	(16b\LL	.
32AA-\	32c</	.	.	.	.
32CC 32AAA-\	32F#< 32<C/	.	.	16cc\JJ)	.
32AA-\	32c</	.	.	.	.
32CC 32AAA-\	32F#< 32<C/	.	.	8cc\	.
32AA-\	32c</	.	.	.	.
32CC 32AAA-\	32F#< 32C</	.	.	.	.
32AA-X\JJJ	32c</JJJ	.	.	.	.
=244	=244	=244	=244	=244	=244
32CCLLL 32AAA-X\	32F#<LLL 32C</	4F#X\	.	(16e-X/LL	.
32AA-X\	32c</	.	.	.	.
32CC 32AAA-\	32F#< 32C</	.	.	16f#/JJ	.
32AA-\	32c</	.	.	.	.
32CC 32AAA-\	32F#< 32<C/	.	.	8f#/)	.
32AA-\	32c</	.	.	.	.
32CC 32AAA-\	32F#< 32C</	.	.	.	.
32AA-\	32c</	.	.	.	.
32CC 32AAA-\	32F#< 32<C/	4FF#/	.	(16d/LL	.
32AA-\	32c</	.	.	.	.
32CC 32AAA-\	32F#< 32C</	.	.	16c/JJ	.
32AA-\	32c</	.	.	.	.
32CC 32AAA-\	32F#< 32C</	.	.	8c/)	]
32AA-\	32c</	.	.	.	.
32CC 32AAA-\	32F#< 32C</	.	.	.	.
32AA-X\JJJ	32c</JJJ	.	.	.	.
*Xtremolo	*Xtremolo	*	*	*	*
=245	=245	=245	=245	=245	=245
4BB 4GGG/	16ddLL 16g\	8GG/	.	8B/	.
.	16b\JJ	.	.	.	.
.	4g\	8r	.	4r	.
4r	.	4r	.	.	.
.	8g\	.	.	8r	.
=246	=246	=246	=246	=246	=246
16CLL 16CC/	16a-XLL 16f#\	(16e-X\LL	.	(16ff#\LL	.
16BBJJ 16BBB/	16g\JJ	16d\JJ)	.	16gg\JJ)	f
4BB 4BBB/	4g\	4d\	.	4gg\	.
8BB 8BBB/	8g\	8d\	.	8gg\	.
=247	=247	=247	=247	=247	=247
16d\LL	16dd\LL	2r	.	2r	.
16B\JJ	16b\JJ	.	.	.	.
4G\	4g\	.	.	.	.
8G\	8g\	.	.	.	.
!LO:LB:g=original	!LO:LB:g=original	!	!	!	!
=248	=248	=248	=248	=248	=248
16CLL 16CC/	16a-XLL 16f#/	16e-X\LL	.	(16ff#\LL	.
16BBJJ 16BBB/	16g/JJ	16d\JJ	.	16gg\JJ)	.
4BB 4BBB/	4g/	4d\	.	4gg\	.
8BB 8BBB/	8g/	8d\	.	8gg\	.
!	!	!LO:LB:g=original	!	!	!
=249	=249	=249	=249	=249	=249
*tremolo	*tremolo	*	*	*	*
32GGG\LLL	32G</LLL	8GG/L	.	(16fff#\LL	.
32FFF#\	32F#</	.	.	.	.
32GGG\	32G</	.	.	16ggg\JJ)	.
32FFF#\	32F#</	.	.	.	.
32GGG\	32G</	8C/	.	8ggg\	.
32FFF#\	32F#</	.	.	.	.
32GGG\	32G</	.	.	.	.
32FFF#\	32F#</	.	.	.	.
32GGG\	32G</	8E-X/	.	(16ddd\LL	.
32FFF#\	32F#</	.	.	.	.
32GGG\	32G</	.	.	16eee-X\JJ)	.
32FFF#\	32F#</	.	.	.	.
32GGG\	32G</	8G/J	.	8eee-\	.
32FFF#\	32F#</	.	.	.	.
32GGG\	32G</	.	.	.	.
32FFF#\JJJ	32F#</JJJ	.	.	.	.
!	!	!	!	!LO:LB:g=original	!
=250	=250	=250	=250	=250	=250
32GGG\LLL	32G</LLL	8c\L	.	(16bb\LL	.
32FFF#\	32F#</	.	.	.	.
32GGG\	32G</	.	.	16ccc\JJ)	.
32FFF#\	32F#</	.	.	.	.
32GGG\	32G</	8d\J	.	8ccc\	.
32FFF#\	32F#</	.	.	.	.
32GGG\	32G</	.	.	.	.
32FFF#\	32F#</	.	.	.	.
32GGG\	32G</	4e-X\	.	(16ff#\LL	.
32FFF#\	32F#</	.	.	.	.
32GGG\	32G</	.	.	16gg\JJ)	.
32FFF#\	32F#</	.	.	.	.
32GGG\	32G</	.	.	8gg\	.
32FFF#\	32F#</	.	.	.	.
32GGG\	32G</	.	.	.	.
32FFF#\JJJ	32F#</JJJ	.	.	.	.
=251	=251	=251	=251	=251	=251
32CCLLL 32AAA-X\	32F#<LLL 32C</	(4c\	.	(16dd\LL	.
32AA-X\	32c</	.	.	.	.
32CC 32AAA-\	32F#< 32C</	.	.	16ee-X\JJ)	.
32AA-\	32c</	.	.	.	.
32CC 32AAA-\	32F#< 32C</	.	.	8ee-\	.
32AA-\	32c</	.	.	.	.
32CC 32AAA-\	32F#< 32C</	.	.	.	.
32AA-\	32c</	.	.	.	.
32CC 32AAA-\	32F#< 32C</	4A-X\)	.	(16b\LL	.
32AA-\	32c</	.	.	.	.
32CC 32AAA-\	32F#< 32<C/	.	.	16cc\JJ)	.
32AA-\	32c</	.	.	.	.
32CC 32AAA-\	32F#< 32C</	.	.	8cc\	.
32AA-\	32c</	.	.	.	.
32CC 32AAA-\	32F#< 32C</	.	.	.	.
32AA-X\JJJ	32c</JJJ	.	.	.	.
=252	=252	=252	=252	=252	=252
32CCLLL 32AAA-X\	32F#<LLL 32C</	4F#X\	.	(>16e-X/LL	.
32AA-X\	32c</	.	.	.	.
32CC 32AAA-\	32F#< 32C</	.	.	16f#/JJ)	.
32AA-\	32c</	.	.	.	.
32CC 32AAA-\	32F#< 32C</	.	.	8f#/	.
32AA-\	32c</	.	.	.	.
32CC 32AAA-\	32F#< 32C</	.	.	.	.
32AA-\	32c</	.	.	.	.
32CC 32AAA-\	32F#< 32C</	4FF#/	.	(16d/LL	.
32AA-\	32c</	.	.	.	.
32CC 32AAA-\	32F#< 32<C/	.	.	16c/JJ)	.
32AA-\	32c</	.	.	.	.
32CC 32AAA-\	32F#< 32C</	.	.	8c/	.
32AA-\	32c</	.	.	.	.
32CC 32AAA-\	32F#< 32C</	.	.	.	.
32AA-X\JJJ	32c</JJJ	.	.	.	.
*Xtremolo	*Xtremolo	*	*	*	*
=253	=253	=253	=253	=253	=253
8GG 8GGG\	8B< 8BB</	8GG/	.	(16f#/LL	.
.	.	.	.	16g/JJ)	.
4r	4ryy	8r	.	8g/	.
.	.	4r	.	4r	.
8ryy	8ryy	.	.	.	.
=254	=254	=254	=254	=254	=254
16d\LL	16dd\LL	2r	.	2r	.
16B\JJ	16b\JJ	.	.	.	.
8G\	8g\	.	.	.	.
4r	4r	.	.	.	.
!LO:LB:g=original	!LO:LB:g=original	!	!	!	!
=255	=255	=255	=255	=255	=255
2r	2r	(16f#\LL	.	(16ff#\LL	.
!	!	!	!	!	!LO:DY:t=pp.
.	.	16g\JJ)	.	16gg\JJ)	pp
.	.	8g\	.	8gg\	.
.	.	4r	.	4r	.
*clefG2	*	*	*	*	*
=256	=256	=256	=256	=256	=256
16f#X/LL	16fff#\LL	2r;	.	2r;	.
16g/JJ	16ggg\JJ	.	.	.	.
8g/	8ggg\	.	.	.	.
4r	4r	.	.	.	.
*clefF4	*clefF4	*	*	*	*
!	!	!LO:LB:g=original	!	!	!
=257	=257	=257	=257	=257	=257
*tremolo	*	*	*	*	*
32CC/LLL	2G 2GG\	(2E-X\	.	[2c/	.
32BBB/	.	.	.	.	.
32CC/	.	.	.	.	.
32BBB/	.	.	.	.	.
32CC/	.	.	.	.	.
32BBB/	.	.	.	.	.
32CC/	.	.	.	.	.
32BBB/	.	.	.	.	.
32CC/	.	.	.	.	.
32BBB/	.	.	.	.	.
32CC/	.	.	.	.	.
32BBB/	.	.	.	.	.
32CC/	.	.	.	.	.
32BBB/	.	.	.	.	.
32CC/	.	.	.	.	.
32BBB/JJJ	.	.	.	.	.
!	!	!	!	!LO:LB:g=original	!
=258	=258	=258	=258	=258	=258
32CC/LLL	2A-X 2AA-X\	2F#\)	.	4c/]	.
32BBB/	.	.	.	.	.
32CC/	.	.	.	.	.
32BBB/	.	.	.	.	.
32CC/	.	.	.	.	.
32BBB/	.	.	.	.	.
32CC/	.	.	.	.	.
32BBB/	.	.	.	.	.
32CC/	.	.	.	4d/	.
32BBB/	.	.	.	.	.
32CC/	.	.	.	.	.
32BBB/	.	.	.	.	.
32CC/	.	.	.	.	.
32BBB/	.	.	.	.	.
32CC/	.	.	.	.	.
32BBB/JJJ	.	.	.	.	.
=259	=259	=259	=259	=259	=259
*rep	*	*	*	*	*
32CC/LLL	2c 2C\	([2G\	.	[4e-X/	.
32BBB/	.	.	.	.	.
32CC/	.	.	.	.	.
32BBB/	.	.	.	.	.
32CC/	.	.	.	.	.
32BBB/	.	.	.	.	.
32CC/	.	.	.	.	.
32BBB/	.	.	.	.	.
!	!	!	!	!LO:TUP:b:problem:klamra łukowa	!
32CC/	.	.	.	20e-/LL]	.
32BBB/	.	.	.	.	.
.	.	.	.	20f#X/	.
32CC/	.	.	.	.	.
32BBB/	.	.	.	.	.
.	.	.	.	20e-/	.
32CC/	.	.	.	.	.
.	.	.	.	20f#/	.
32BBB/	.	.	.	.	.
32CC/	.	.	.	.	.
.	.	.	.	20e-/JJ	.
32BBB/JJJ	.	.	.	.	.
*Xrep	*	*	*	*	*
=260	=260	=260	=260	=260	=260
*rep	*	*	*	*	*
32CC/LLL	4B 4BB\	4G\]	.	4d/	.
32BBB/	.	.	.	.	.
32CC/	.	.	.	.	.
32BBB/	.	.	.	.	.
32CC/	.	.	.	.	.
32BBB/	.	.	.	.	.
32CC/	.	.	.	.	.
32BBB/	.	.	.	.	.
32CC/	4A-X 4AA-X\	4F#\)	.	4c/	.
32BBB/	.	.	.	.	.
32CC/	.	.	.	.	.
32BBB/	.	.	.	.	.
32CC/	.	.	.	.	.
32BBB/	.	.	.	.	.
32CC/	.	.	.	.	.
32BBB/JJJ	.	.	.	.	.
*Xrep	*	*	*	*	*
=261	=261	=261	=261	=261	=261
*rep	*	*	*	*	*
32CC/LLL	2G 2GG\	2E-X\	.	8B/L	.
32BBB/	.	.	.	.	.
32CC/	.	.	.	.	.
32BBB/	.	.	.	.	.
32CC/	.	.	.	8c/	.
32BBB/	.	.	.	.	.
32CC/	.	.	.	.	.
32BBB/	.	.	.	.	.
32CC/	.	.	.	8.e-X/	.
32BBB/	.	.	.	.	.
32CC/	.	.	.	.	.
32BBB/	.	.	.	.	.
32CC/	.	.	.	.	.
32BBB/	.	.	.	.	.
32CC/	.	.	.	16g/Jk	.
32BBB/JJJ	.	.	.	.	.
*Xtremolo	*	*	*	*	*
*Xrep	*	*	*	*	*
=262	=262	=262	=262	=262	=262
16CCLL 16CCC/	16cLL 16C\	[2F#\	.	[2a-X/	.
16EE-X/	16E-X\	.	.	.	.
16FF#/	16F#\	.	.	.	.
16AA-X/JJ	16A-X\JJ	.	.	.	.
*	*clefG2	*	*	*	*
16C/LL	16c/LL	.	.	.	.
16E-X/	16e-X/	.	.	.	.
16F#/	16f#/	.	.	.	.
16A-y/JJ	16a-y/JJ	.	.	.	.
!LO:LB:g=original	!LO:LB:g=original	!	!	!	!
=263	=263	=263	=263	=263	=263
16C\LL	16c/LL	2F#\_	.	2a-X/_	.
16E-X\	16e-X/	.	.	.	.
16F#\	16f#/	.	.	.	.
16A-X\JJ	16a-X/JJ	.	.	.	.
*clefG2	*	*	*	*	*
16c/LL	16cc\LL	.	.	.	.
16e-X/	16ee-X\	.	.	.	.
16f#/	16ff#\	.	.	.	.
16a-X/JJ	16aa-X\JJ	.	.	.	.
=264	=264	=264	=264	=264	=264
16c/LL	16cc\LL	2F#\]	.	2a-/]	.
16e-X/	16ee-X\	.	.	.	.
16f#/	16ff#\	.	.	.	.
16a-X/JJ	16aa-X\JJ	.	.	.	.
16cc\LL	16ccc\LL	.	.	.	.
16ee-X\	16eee-y\	.	.	.	.
16ff#\	16fff#\	.	.	.	.
16aa-X\JJ	16aaa-X\JJ	.	.	.	.
=265	=265	=265	=265	=265	=265
16ff#\LL	16fff#\LL	4B 4GG\	.	4g/	.
16gg\JJ	16ggg\JJ	.	.	.	.
4gg\	4ggg\	.	.	.	.
.	.	4r	.	4r	.
8gg\	8ggg\	.	.	.	.
=266	=266	=266	=266	=266	=266
*	*8va	*	*	*	*
16ddd\LL	16dddd\LL	2r	.	2r	.
16bb\JJ	16bbb\JJ	.	.	.	.
4gg\	4ggg\	.	.	.	.
8gg\	8ggg\	.	.	.	.
*	*X8va	*	*	*	*
=267	=267	=267	=267	=267	=267
!	!	!LO:TX:a:i:t=pizz	!	!LO:TX:b:i:t=pizz	!
16ff#\LL	16fff#\LL	4G\	.	4b 4g/	.
16gg\JJ	16ggg\JJ	.	.	.	.
4gg\	4ggg\	.	.	.	.
.	.	4r	.	4r	.
8gg\	8ggg\	.	.	.	.
!LO:LB:g=original	!LO:LB:g=original	!LO:LB:g=original	!	!LO:PB:g=original	!
=268	=268	=268	=268	=268	=268
*	*8va	*	*	*	*
!	!	!LO:TX:a:t=6	!	!	!
16ddd\LL	16dddd\LL	2r	.	2r	.
16bb\JJ	16bbb\JJ	.	.	.	.
4gg\	4ggg\	.	.	.	.
8gg\	8ggg\	.	.	.	.
=269	=269	=269	=269	=269	=269
!	!	!	!	!LO:TX:b:i:t=arco	!
16ff#\LL	16fff#\LL	2r	.	((16f#/LL	.
16gg\J	16ggg\J	.	.	16g/J))	.
8gg\J	8ggg\J	.	.	8g/J	.
!	!	!	!	!	!LO:HP:a
.	.	.	.	.	<
16gg\LL	16ggg\LL	.	.	(16g/LL	.
16aa-X\J	16aaa-X\J	.	.	16a-X/J)	.
8aa-\J	8aaa-\J	.	.	8a-/J	.
=270	=270	=270	=270	=270	=270
16gg#X\LL	16aaa#X\LL	2r	.	(16g#X/LL	.
16aa\J	16aaan\J	.	.	16an/J)	.
8aa\J	8aaa\J	.	.	8a/J	.
16aa\LL	16aaa\LL	.	.	(16a/LL	.
16bb-X\J	16bbb-X\J	.	.	16b-X/J)	.
8bb-\J	8bbb-\J	.	.	8b-/J	.
=271	=271	=271	=271	=271	=271
!LO:SIC:v:s=16bb-	!LO:SIC:v:s=16bbb-	!	!	!	!
16bb\LL	16bbb\LL	2r	.	(16b-X/LL	.
16bbn\J	16bbbn\J	.	.	16bn/J)	.
8bb\J	8bbb\J	.	.	8b/J	.
16bb\LL	16bbb\LL	.	.	(16b/LL	.
16ccc\J	16cccc\J	.	.	16cc/J)	.
8ccc\J	8cccc\J	.	.	8cc/J	.
=272	=272	=272	=272	=272	=272
16ccc\LL	16cccc\LL	2r	.	(16cc/LL	.
16ccc#X\J	16cccc#X\J	.	.	16cc#X/J)	.
8ccc#\J	8cccc#\J	.	.	8cc#/J	.
16ccc#\LL	16cccc#\LL	.	.	(16cc#/LL	.
16ddd\J	16dddd\J	.	.	16dd/J)	[
8ddd\J	8dddd\J	.	.	8dd/J	.
*	*X8va	*	*	*	*
=273	=273	=273	=273	=273	=273
2r	2r;	2r;	.	2r;	.
*clefF4	*	*	*	*	*
!LO:LB:g=original	!LO:LB:g=original	!	!	!	!
=274	=274	=274	=274	=274	=274
*tremolo	*	*	*	*	*
!	!	!LO:TX:a:t=arco	!	!	!
32GG\ 32GGGLLL	2d< 2D</	(2B-X\	.	(>[2g/	ff
32FF#\	.	.	.	.	.
32GG\ 32GGG	.	.	.	.	.
32FF#\	.	.	.	.	.
32GG\ 32GGG	.	.	.	.	.
32FF#\	.	.	.	.	.
32GG\ 32GGG	.	.	.	.	.
32FF#\	.	.	.	.	.
32GG\ 32GGG	.	.	.	.	.
32FF#\	.	.	.	.	.
32GG\ 32GGG	.	.	.	.	.
32FF#\	.	.	.	.	.
32GG\ 32GGG	.	.	.	.	.
32FF#\	.	.	.	.	.
32GG\ 32GGG	.	.	.	.	.
32FF#\JJJ	.	.	.	.	.
=275	=275	=275	=275	=275	=275
32GG\LLL	2e-X< 2E-X</	2c#X\)	.	4g/]	.
32FF#\	.	.	.	.	.
32GG\	.	.	.	.	.
32FF#\	.	.	.	.	.
32GG\	.	.	.	.	.
32FF#\	.	.	.	.	.
32GG\	.	.	.	.	.
32FF#\	.	.	.	.	.
32GG\	.	.	.	4a/)	.
32FF#\	.	.	.	.	.
32GG\	.	.	.	.	.
32FF#\	.	.	.	.	.
32GG\	.	.	.	.	.
32FF#\	.	.	.	.	.
32GG\	.	.	.	.	.
32FF#\JJJ	.	.	.	.	.
=276	=276	=276	=276	=276	=276
32GG\LLL	2g< 2G</	([2d\	.	[>4b-X/	.
32FF#\	.	.	.	.	.
32GG\	.	.	.	.	.
32FF#\	.	.	.	.	.
32GG\	.	.	.	.	.
32FF#\	.	.	.	.	.
32GG\	.	.	.	.	.
32FF#\	.	.	.	.	.
!	!	!	!	!LO:TUP:b:problem:klamra łukowa	!
32GG\	.	.	.	20b-/LL]	.
32FF#\	.	.	.	.	.
.	.	.	.	20cc#X/	.
32GG\	.	.	.	.	.
32FF#\	.	.	.	.	.
.	.	.	.	20b-/	.
32GG\	.	.	.	.	.
.	.	.	.	20cc#/	.
32FF#\	.	.	.	.	.
32GG\	.	.	.	.	.
.	.	.	.	20b-/JJ	.
32FF#\JJJ	.	.	.	.	.
!	!	!	!	!LO:LB:g=original	!
=277	=277	=277	=277	=277	=277
32GG\LLL	4f#< 4F#</	4d\]	.	(>4a/	.
32FF#\	.	.	.	.	.
32GG\	.	.	.	.	.
32FF#\	.	.	.	.	.
32GG\	.	.	.	.	.
32FF#\	.	.	.	.	.
32GG\	.	.	.	.	.
32FF#\	.	.	.	.	.
32GG\	4e-X< 4E-X</	4c#X\)	.	4g/)	.
32FF#\	.	.	.	.	.
32GG\	.	.	.	.	.
32FF#\	.	.	.	.	.
32GG\	.	.	.	.	.
32FF#\	.	.	.	.	.
32GG\	.	.	.	.	.
32FF#\JJJ	.	.	.	.	.
=278	=278	=278	=278	=278	=278
32GG\LLL	2d< 2D</	2B-X\	.	8f#/L	.
32FF#\	.	.	.	.	.
32GG\	.	.	.	.	.
32FF#\	.	.	.	.	.
32GG\	.	.	.	8g/	.
32FF#\	.	.	.	.	.
32GG\	.	.	.	.	.
32FF#\	.	.	.	.	.
!	!	!	!	!LO:N:vis=8	!
32GG\	.	.	.	8.b-X/	.
32FF#\	.	.	.	.	.
32GG\	.	.	.	.	.
32FF#\	.	.	.	.	.
32GG\	.	.	.	.	.
32FF#\	.	.	.	.	.
32GG\	.	.	.	16dd/Jk	.
32FF#\JJJ	.	.	.	.	.
*Xtremolo	*	*	*	*	*
=279	=279	=279	=279	=279	=279
16GGLL 16GGG\	16G</LL	[2c#X\	.	[2ee-X^^\	.
16BB-X\	16B-X</	.	.	.	.
16C#X\	16c#X</	.	.	.	.
16E-X\JJ	16e-X</JJ	.	.	.	.
16G\LL	16g\LL	.	.	.	.
16B-X\	16b-X\	.	.	.	.
16c#X\	16cc#X\	.	.	.	.
16e-X\JJ	16ee-X\JJ	.	.	.	.
=280	=280	=280	=280	=280	=280
16G\LL	16g\LL	2c#\_	.	2ee-\_	.
16B-X\	16b-X\	.	.	.	.
16c#X\	16cc#X\	.	.	.	.
16e-X\JJ	16ee-X\JJ	.	.	.	.
*clefG2	*	*	*	*	*
16g\LL	16gg\LL	.	.	.	.
16b-X\	16bb-X\	.	.	.	.
16cc#X\	16ccc#X\	.	.	.	.
16ee-X\JJ	16eee-X\JJ	.	.	.	.
!LO:PB:g=original	!LO:PB:g=original	!	!	!	!
=281	=281	=281	=281	=281	=281
16g\LL	16gg\LL	2c#\]	.	2ee-\]	.
16b-X\	16bb-X\	.	.	.	.
16cc#X\	16ccc#X\	.	.	.	.
16ee-X\JJ	16eee-X\JJ	.	.	.	.
*	*8va	*	*	*	*
16gg\LL	16ggg\LL	.	.	.	.
16bb-X\	16bbb-\	.	.	.	.
16ccc#X\	16cccc#\	.	.	.	.
16eee-X\JJ	16eeee-\JJ	.	.	.	.
=282	=282	=282	=282	=282	=282
16ccc#X\LL	16cccc#X\LL	4f# 4D\	.	4dd'\	.
16ddd\JJ	16dddd\JJ	.	.	.	.
4ddd\	4dddd\	.	.	.	.
.	.	4r	.	4r	.
8ddd\	8dddd\	.	.	.	.
=283	=283	=283	=283	=283	=283
16aaa\LL	16aaaa\LL	2r	.	2r	.
16fff#\JJ	16ffff#\JJ	.	.	.	.
4ddd\	4dddd\	.	.	.	.
8ddd\	8dddd\	.	.	.	.
!	!	!LO:LB:g=original	!	!	!
=284	=284	=284	=284	=284	=284
!	!	!LO:TX:a:i:t=pizz	!	!LO:TX:a:i:t=pizz.	!
16ccc#X\LL	16cccc#X\LL	4d\	.	4ff# 4dd\	.
16ddd\JJ	16dddd\JJ	.	.	.	.
4ddd\	4dddd\	.	.	.	.
.	.	4r	.	4r	.
8ddd\	8dddd\	.	.	.	.
=285	=285	=285	=285	=285	=285
16aaa\LL	16aaaa\LL	2r	.	2r	.
16fff#\JJ	16ffff#\JJ	.	.	.	.
4ddd\	4dddd\	.	.	.	.
8ddd\	8dddd\	.	.	.	.
=286	=286	=286	=286	=286	=286
!	!	!LO:TX:a:i:t=pizz	!LO:DY:t=pp.	!LO:TX:a:i:t=pizz	!
16ddd\LL	16dddd\LL	8f#\L	pp	8aa\L	.
!	!	!	!	!	!LO:DY:t=pp.
16fff#\	16ffff#\	.	.	.	pp
16aaa\	16aaaa\	8d\	.	8ff#\J	.
16fff#\JJ	16ffff#\	.	.	.	.
16ddd\LL	16dddd\	8f#\	.	4ff#\	.
16aa\	16aaa\	.	.	.	.
16ff#\	16fff#\	8a\J	.	.	.
16aa\JJ	16aaa\JJ	.	.	.	.
!LO:LB:g=original	!LO:LB:g=original	!	!	!	!
=287	=287	=287	=287	=287	=287
16ff#\LL	16fff#\LL	8Ao\L	.	8dd\L	.
16aa\	16aaa\	.	.	.	.
16ddd\	16dddd\	8F#\	.	8a\J	.
16aa\	16aaa\	.	.	.	.
16ff#\	16fff#\	8A\	.	4a\	.
16dd\	16ddd\	.	.	.	.
16a\	16aa\	8d\J	.	.	.
16dd\JJ	16ddd\JJ	.	.	.	.
*	*X8va	*	*	*	*
!	!	!	!	!LO:LB:g=original	!
=288	=288	=288	=288	=288	=288
16a\LL	16aa\LL	8Do\L	.	8f#/L	.
16dd\	16ddd\	.	.	.	.
16ff#\	16fff#\	8AA\	.	8d/J	.
16dd\	16ddd\	.	.	.	.
16a\	16aa\	8D\	.	4d/	.
16f#\	16ff#\	.	.	.	.
16d\	16dd\	8F#\J	.	.	.
16f#\JJ	16ff#\JJ	.	.	.	.
=289	=289	=289	=289	=289	=289
16a\LL	16aa\LL	8D\L	.	8f#/L	.
16dd\	16ddd\	.	.	.	.
16ff#\	16fff#\	8AA\	.	8d/J	.
16dd\	16ddd\	.	.	.	.
16a\	16aa\	8D\	.	4d/	.
16f#\	16ff#\	.	.	.	.
16d\	16dd\	8F#\J	.	.	.
16f#\JJ	16ff#\JJ	.	.	.	.
=290	=290	=290	=290	=290	=290
4g 4e-X/	4gg 4ee-X\	8D\	.	2r	.
.	.	8r	.	.	.
4cc/	4ccc\	4r	.	.	.
=291	=291	=291	=291	=291	=291
!	!	!LO:TX:a:t=3	!	!	!
8c/L	8cc\L	2r	.	2r	.
8e-X/	8ee-X\	.	.	.	.
8.f#/	8.ff#\	.	.	.	.
16g/Jk	16gg\Jk	.	.	.	.
=292	=292	=292	=292	=292	=292
2a-X [<2e-X [2c/	2aa-X [<2ee-X [2cc\	2r	.	2r	.
!LO:LB:g=original	!LO:LB:g=original	!	!	!	!
=293	=293	=293	=293	=293	=293
4g 4e-X] 4c/]	4gg 4ee-X] 4cc\]	2r	.	2r	.
4f#/	4ff#\	.	.	.	.
=294	=294	=294	=294	=294	=294
!	!	!LO:TX:a:i:t=pizz.	!	!	!
16dd\LL	16ddd\LL	8F#\L	.	8a/L	.
16ff#\	16fff#\	.	.	.	.
16aa\	16aaa\	8D\	.	8f#/J	.
16ff#\	16fff#\	.	.	.	.
16dd\	16ddd\	8F#\	.	4f#/	.
16a\	16aa\	.	.	.	.
16f#\	16ff#\	8A\J	.	.	.
16a\JJ	16aa\JJ	.	.	.	.
!	!	!LO:LB:g=original	!	!	!
=295	=295	=295	=295	=295	=295
16f#/LL	16ff#\LL	8AA/L	.	8d/L	.
16a/	16aa\	.	.	.	.
16dd/	16ddd\	8FF#/	.	8A/J	.
16a/	16aa\	.	.	.	.
16f#/	16ff#\	8AA/	.	4A/	.
16d/	16dd\	.	.	.	.
16A/	16a\	8D/J	.	.	.
16d/JJ	16dd\JJ	.	.	.	.
=296	=296	=296	=296	=296	=296
*clefF4	*	*	*	*	*
!	!	!	!	!LO:TX:i:a:t=arco	!
8DD/L	16A/LL	8F#/L	.	(16a\LL	.
.	16d/	.	.	16dd\)	.
8AAA/J	16f#/	8D/J	.	16ff#'\	.
.	16d/JJ	.	.	16dd'\JJ	.
8DD\L	16A</LL	4D/	.	(16a\LL	.
.	16F#</	.	.	16f#\)	.
8FF#\J	16D</	.	.	(16d\	.
.	16F#</JJ	.	.	16f#\JJ)	.
=297	=297	=297	=297	=297	=297
8DD\L	16A</LL	8F#/L	.	(16a\LL	.
.	16d</	.	.	16dd\)	.
8AAA\J	16f#</	8D/J	.	16ff#'\	.
.	16d</	.	.	16dd'\JJ	.
8DD\L	16A</	4D/	.	(16a\LL	.
.	16F#</	.	.	16f#\)	.
8FF#\J	16D</	.	.	(16d\	.
.	16F#</JJ	.	.	16f#\JJ)	.
!LO:LB:g=original	!LO:LB:g=original	!	!	!LO:LB:g=original	!
=298	=298	=298	=298	=298	=298
4G 4E-X\	4g 4e-X/	4DD/	.	2r	.
4c\	4cc/	4r	.	.	.
=299	=299	=299	=299	=299	=299
!	!	!LO:TX:a:t=3	!	!	!
8C\L	8c/L	2r	.	2r	.
8E-X\	8e-X/	.	.	.	.
!	!LO:N:vis=8	!	!	!	!
8.F#\	8.f#/	.	.	.	.
16G\Jk	16g/Jk	.	.	.	.
=300	=300	=300	=300	=300	=300
2A-X [<2E-X [2C\	2a-X [<2e-X [2c/	2r	.	2r	.
=301	=301	=301	=301	=301	=301
4G 4E-] 4C\]	4g 4e-] 4c/]	2r	.	2r	.
4F#\	4f#/	.	.	.	.
=302	=302	=302	=302	=302	=302
!	!	!LO:TX:a:i:t=pizz.	!	!	!
8FF#'/L	16d/LL	8A\L	.	(16dd\LL	.
.	16f#/	.	.	16ff#\)	.
8DD'/	16a/	8F#\J	.	16aa'\	.
.	16f#J/	.	.	16ff#'\JJ	.
8FF#'/	16dL/	4F#\	.	(16dd\LL	.
.	16A/	.	.	16a\	.
8AA'/J	16F#/	.	.	16f#\	.
.	16A/JJ	.	.	16a\JJ)	.
=303	=303	=303	=303	=303	=303
16DDLL 16DDD\	16D</LL	4D\	.	4d/	.
16EE-X\	16E-X</	.	.	.	.
16EEn\	16En</	.	.	.	.
!LO:SIC:v:s=16FF	!LO:SIC:v:s=16F	!	!	!	!
16FF#\JJ	16F#</	.	.	.	.
16FF#X\LL	16F#X</	4r	.	4r	.
16GG\	16G</	.	.	.	.
16GG#X\	16G#X</	.	.	.	.
16AA\JJ	16A</JJ	.	.	.	.
!LO:LB:g=original	!LO:LB:g=original	!	!	!	!
=304	=304	=304	=304	=304	=304
!	!	!LO:TX:a:t=2	!	!LO:TX:a:t=2	!
16BB-X\LL	16B-X</LL	2r	.	2rb	.
16BBn\	16Bn</	.	.	.	.
16C\	16c</	.	.	.	.
16C#X\	16c#X</JJ	.	.	.	.
16D\	16d\LL	.	.	.	.
16E-X\	16e-X\	.	.	.	.
16En\	16en\	.	.	.	.
16Fn\JJ	16fn\JJ	.	.	.	.
=305	=305	=305	=305	=305	=305
16F#X\LL	16f#X\LL	2r	.	2rb	.
16G\	16g\	.	.	.	.
16G#X\	16g#X\	.	.	.	.
16A\	16a\	.	.	.	.
16B-X\	16b-X\	.	.	.	.
16Bn\	16bn\	.	.	.	.
16c\	16cc\	.	.	.	.
16c#X\JJ	16cc#X\JJ	.	.	.	.
!	!	!LO:LB:g=original	!	!	!
=306	=306	=306	=306	=306	=306
!	!	!LO:TX:a:i:t=arco.	!	!	!
8B-XL 8G\	8g\L	2GG^^</	.	(16dd\LL	.
.	.	.	.	16b-X\	.
8B-\J	8b-X\J	.	.	16gg\	.
!	!	!	!	!	!LO:DY:t=p.
.	.	.	.	16dd\JJ	p
4d 4G\	4dd\	.	.	4bb-X\)	.
=307	=307	=307	=307	=307	=307
!	!	!	!LO:DY:a:rj:t=f.	!	!
4d 4A\	8r	4FF#^^</	f	8r	.
.	8dd\	.	.	8aa'\	.
4d 4B\	8r	4DD^^</	.	8r	.
.	8dd\	.	.	8ff#'\	.
=308	=308	=308	=308	=308	=308
16B-X\LL	2g 2G/	2EE-X^^</	.	4gg\	.
16e-X\	.	.	.	.	.
16G\	.	.	.	.	.
16B-\JJ	.	.	.	.	.
4E-X\	.	.	.	4r	.
=309	=309	=309	=309	=309	=309
4D\	8r	4EE-X/	.	4r	.
.	8g 8G/	.	.	.	.
4C#X\	8r	4EE-/	.	16ee-X\LL	.
.	.	.	.	16gg\	.
.	8g 8G/	.	.	16bb-X\	.
.	.	.	.	16ccc#X\JJ	.
!LO:LB:g=original	!LO:LB:g=original	!	!	!	!
=310	=310	=310	=310	=310	=310
8F#L 8FF#\	8aL 8A/	8DD/L	.	8ddd\L	f
!	!	!	!	!LO:TX:b:i:t=marcato	!
8G 8GG\	8b-X 8B-X/	8CC#X/	.	8eee-X\	.
8F# 8FF#\	8a 8A/	8DD/	.	8ddd\	.
8GG\J	8gJ 8G/	8EE-X/J	.	8ccc#X\J	.
=311	=311	=311	=311	=311	=311
8AA\L	8f#L 8F#/	4DD/	.	8ddd\L	.
8GG\J	8gJ 8G/	.	.	(16bb-X'\L	.
.	.	.	.	16bb-'\JJ)	.
8AA\L	8f#L 8F#/	4DD/	.	8ddd\L	.
8GG\J	8gJ 8G/	.	.	(16bb-'\L	.
.	.	.	.	16bb-'\JJ)	.
!	!	!LO:LB:g=original	!	!LO:LB:g=original	!
=312	=312	=312	=312	=312	=312
8F#L 8FF#\	8aL 8A/	8DD/L	.	8ddd\L	.
8G 8GG\	8b-X 8B-X/	8CC#X/	.	8eee-X\	.
8F# 8FF#\	8a 8A/	8DD/	.	8ddd\	.
8GG\J	8gJ 8G/	8EE-X/J	.	8ccc#X\J	.
=313	=313	=313	=313	=313	=313
8AA\L	8f#L 8F#/	4DD/	.	8ddd\L	.
8GG\J	8gJ 8G/	.	.	(16bb-X'\L	.
.	.	.	.	16bb-'\JJ)	.
8AA\L	8f#L 8F#/	4DD/	.	8ddd\L	.
8GG\J	8gJ 8G/	.	.	(16bb-'\L	.
.	.	.	.	16bb-'\JJ)	.
=314	=314	=314	=314	=314	=314
8D\	8r	[2D\	.	8ddd\L	.
8r	8f# 8d 8A/	.	.	(16aa'\L	.
.	.	.	.	16aa'\JJ)	.
8D\	8r	.	.	8bb-X\L	.
8r	8fn 8d 8B-X/	.	.	(16ffn'\L	.
.	.	.	.	16ff'\JJ)	.
=315	=315	=315	=315	=315	=315
8D\	8r	2D\]	.	8ff#X\L	.
8r	8f# 8c#X 8A#X/	.	.	(16cc#X'\L	.
.	.	.	.	16cc#'\JJ)	.
8D\	8r	.	.	8dd\L	.
8r	8f# 8d 8An/	.	.	(16a'\L	.
.	.	.	.	16a'\JJ)	.
!LO:LB:g=original	!LO:LB:g=original	!	!	!	!
=316	=316	=316	=316	=316	=316
*	*clefF4	*	*	*	*
8DD/	8r	[2DD/	.	8dd\L	.
8r	8F# 8D 8AA\	.	.	(16a'\L	.
.	.	.	.	16a'\JJ)	.
8DD/	8r	.	.	8b-X\L	.
8r	8Fn 8D 8BB-X\	.	.	(16fn'\L	.
.	.	.	.	16f'\JJ)	.
=317	=317	=317	=317	=317	=317
8DD/	8r	2DD/]	.	8f#X/L	.
8r	8F# 8C#X 8AA#X\	.	.	(16c#X'/L	.
.	.	.	.	16c#'/JJ)	.
8DD/	8r	.	.	8d/L	.
8r	8F# 8D 8AAn\	.	.	(16A'/L	.
.	.	.	.	16A'/JJ)	.
=318	=318	=318	=318	=318	=318
16DDLL 16DDD\	16D</LL	8DD/	.	8d/	.
16EE-X\	16E-X</	.	.	.	.
16EEn\	16En</	8r	.	8r	.
16FFn\	16Fn</	.	.	.	.
16FF#X\	16F#X</	4r	.	4r	.
16GG\	16G</	.	.	.	.
16GG#X\	16G#X</	.	.	.	.
16AA\JJ	16A</JJ	.	.	.	.
=319	=319	=319	=319	=319	=319
!	!LO:CL:ed	!	!	!	!
*	*clefG2	*	*	*	*
16BB-X\LL	16B-X/LL	2r	.	2r	.
16BBn\	16Bn/	.	.	.	.
16C\	16c/	.	.	.	.
16C#X\	16c#X/	.	.	.	.
16D\	16d/	.	.	.	.
16E-X\	16e-X/	.	.	.	.
16En\	16en/	.	.	.	.
16Fn\JJ	16fn/JJ	.	.	.	.
=320	=320	=320	=320	=320	=320
16F#X\LL	16f#X/LL	2r	.	2r	.
16G\	16g/	.	.	.	.
16G#X\	16g#X/	.	.	.	.
16A\	16a/	.	.	.	.
16B-X\	16b-X/	.	.	.	.
16Bn\	16bn/	.	.	.	.
16c\	16cc/	.	.	.	.
16c#X\JJ	16cc#X/JJ	.	.	.	.
*clefG2	*	*	*	*	*
=321	=321	=321	=321	=321	=321
16d/LL	16dd/LL	2r	.	2r	.
16e-X/	16ee-X/	.	.	.	.
16c#X/	16cc#X/	.	.	.	.
16e-/JJ	16ee-/JJ	.	.	.	.
16d\LL	16dd\LL	.	.	.	.
16f#\	16ff#\	.	.	.	.
16a\	16aa\	.	.	.	.
16dd\JJ	16ddd\JJ	.	.	.	.
!LO:LB:g=original	!LO:LB:g=original	!LO:PB:g=original	!	!LO:LB:g=original	!
=322	=322	=322	=322	=322	=322
*clefF4	*clefG2	*	*	*	*
!	!	!LO:TX:a:i:t=marcatissimo.	!	!	!
8B-XL 8G\	8g\L	2GG/	.	(16dd\LL	.
.	.	.	.	16b-X\	.
8B-\J	8b-X\J	.	.	16gg\	.
.	.	.	.	16dd\JJ	.
4d 4G\	4dd\	.	.	8bb-X\)	.
.	.	.	.	8r	.
=323	=323	=323	=323	=323	=323
16B-X\LL	2g 2G/	2EE-X/	.	2gg^^\	.
16e-X\	.	.	.	.	.
16G\	.	.	.	.	.
16B-\JJ	.	.	.	.	.
4E-X\	.	.	.	.	.
=324	=324	=324	=324	=324	=324
8E-XL 8C#X\	8c#X/L	2CC#X/	.	(16g/LL	.
.	.	.	.	16e-X/	.
8E-\J	8e-X/J	.	.	16cc#X/	.
.	.	.	.	16g/JJ	.
4G 4C#\	4g/	.	.	8ee-X/)	.
.	.	.	.	8r	.
=325	=325	=325	=325	=325	=325
16A\LL	2f#X 2F#/	2DD/	.	2dd^^\	.
16d\	.	.	.	.	.
16F#\	.	.	.	.	.
16A\JJ	.	.	.	.	.
4D\	.	.	.	.	.
=326	=326	=326	=326	=326	=326
8B-XL 8G\	8g/L	2GG/	.	(16dd\LL	.
.	.	.	.	16b-X\	.
8B-\J	8b-X/J	.	.	16gg\	.
.	.	.	.	16dd\JJ	.
4d 4G\	4dd/	.	.	8bb-X\)	.
.	.	.	.	8r	.
=327	=327	=327	=327	=327	=327
16B-X\LL	2g 2G/	2EE-X/	.	2gg^^\	.
16e-X\	.	.	.	.	.
16G\	.	.	.	.	.
16B-\JJ	.	.	.	.	.
4E-X\	.	.	.	.	.
=328	=328	=328	=328	=328	=328
8E-XL 8C#X\	8c#X/L	2CC#X/	.	(16g/LL	.
.	.	.	.	16e-X/	.
8E-\J	8e-X/J	.	.	16cc#X/	.
.	.	.	.	16g/JJ	.
4G 4C#\	4g/	.	.	8ee-X/)	.
.	.	.	.	8r	.
!LO:LB:g=original	!LO:LB:g=original	!	!	!	!
=329	=329	=329	=329	=329	=329
16A\LL	2f# 2F#/	2DD/	.	2dd^^\	.
16d\	.	.	.	.	.
16F#\	.	.	.	.	.
16A\JJ	.	.	.	.	.
4D\	.	.	.	.	.
*clefG2	*	*	*	*	*
=330	=330	=330	=330	=330	=330
!	!	!LO:TX:b:i:t=pizz.	!LO:DY:a:t=p.	!LO:TX:a:i:t=pizz.	!
16dd\LL	16ddd\LL	8GG/	p	8ggL 8g\	.
16b-X\	16bb-X\	.	.	.	.
16gg\	16ggg\	8r	.	8bb-XJ 8b-X\	.
16dd\JJ	16ddd\JJ	.	.	.	.
16cc#X\LL	16ccc#X\LL	8GG/	.	8r	.
16a\	16aa\	.	.	.	.
16ff#\	16fff#\	8r	.	8aa 8a\	.
16cc#\JJ	16ccc#\JJ	.	.	.	.
!	!	!	!	!LO:LB:g=original	!
=331	=331	=331	=331	=331	=331
16ccn\LL	16cccn\LL	8GG/	.	8r	.
16a-X\	16aa-X\	.	.	.	.
16ffn\	16fffn\	8r	.	8aa-X 8a-X\	.
16cc\JJ	16ccc\JJ	.	.	.	.
16b\LL	16bb\LL	8GG/	.	8r	.
16g\	16gg\	.	.	.	.
16ee\	16eee\	8r	.	8gg 8g\	.
16b\JJ	16bb\JJ	.	.	.	.
!	!	!LO:LB:g=original	!	!	!
=332	=332	=332	=332	=332	=332
16a#X\LL	16aa#X\LL	8GG/	.	8r	.
16f#\	16ff#\	.	.	.	.
16dd#X\	16ddd#X\	8r	.	8ff# 8f#\	.
16a#\JJ	16aa#\JJ	.	.	.	.
16an\LL	16aan\LL	8GG/	.	8r	.
16fn\	16ffn\	.	.	.	.
16ddn\	16dddn\	8r	.	8ffn 8fn\	.
16a\JJ	16aa\JJ	.	.	.	.
=333	=333	=333	=333	=333	=333
16g#X\LL	16gg#X\LL	8GG/	.	8r	.
16e\	16een\	.	.	.	.
16cc#X\	16ccc#X\	8r	.	8ee 8e\	.
16g#\JJ	16gg#\JJ	.	.	.	.
16gn\LL	16ggn\LL	8GG/	.	8r	.
16e-X\	16ee-X\	.	.	.	.
16ccn\	16cccn\	8r	.	8ee-X 8e-X\	.
16g\JJ	16gg\JJ	.	.	.	.
!LO:LB:g=original	!LO:LB:g=original	!	!	!	!
=334	=334	=334	=334	=334	=334
*clefG2	*	*	*	*	*
16b-X\LL	16bb-X\LL	8DD/	.	8gg 8g\	.
16ee-X\	16eee-X\	.	.	.	.
16g\	16gg\	8r	.	8r	.
16b-\JJ	16bb-\JJ	.	.	.	.
16a\LL	16aa\LL	8DD/	.	8ff# 8f#\	.
16dd\	16ddd\	.	.	.	.
16f#\	16ff#\	8r	.	8r	.
16a\JJ	16aa\JJ	.	.	.	.
=335	=335	=335	=335	=335	=335
16g#X/LL	16gg#X\LL	8DD/	.	8ee#X 8e#X\	.
16cc#X/	16ccc#X\	.	.	.	.
16e#X/	16ee#X\	8r	.	8r	.
16g#/JJ	16gg#\JJ	.	.	.	.
16gn/LL	16ggn\LL	8DD/	.	8een 8en\	.
16ccn/	16cccn\	.	.	.	.
16en/	16een\	8r	.	8r	.
16g/JJ	16gg\JJ	.	.	.	.
=336	=336	=336	=336	=336	=336
16f#/LL	16ff#\LL	8DD/	.	8dd#X 8d#X\	.
16b/	16bb\	.	.	.	.
16d#X/	16dd#X\	8r	.	8r	.
16f#/JJ	16ff#\JJ	.	.	.	.
16fn/LL	16ffn\LL	8DD/	.	8ddn 8dn\	.
16b-X/	16bb-X\	.	.	.	.
16dn/	16ddn\	8r	.	8r	.
16f/JJ	16ff\JJ	.	.	.	.
=337	=337	=337	=337	=337	=337
16e/LL	16ee\LL	8DD/	.	8cc#X 8c#X\	.
16a/	16aa\	.	.	.	.
16c#X/	16cc#X\	8r	.	8r	.
16e/JJ	16ee\JJ	.	.	.	.
16e-X/LL	16ee-X\LL	8DD/	.	8ccn 8cn\	.
16a-X/	16aa-\	.	.	.	.
16cn/	16ccn\	8r	.	8r	.
16e-/JJ	16ee-\JJ	.	.	.	.
=338	=338	=338	=338	=338	=338
*clefF4	*	*	*	*	*
16d\LL	16dd\LL	8GG/	.	8gL 8G/	.
16B-X\	16b-X\	.	.	.	.
16g\	16gg\	8r	.	8b-XJ 8B-X/	.
16d\JJ	16dd\JJ	.	.	.	.
16c#X\LL	16cc#X\LL	8GG/	.	8r	.
16A\	16a\	.	.	.	.
16f#\	16ff#\	8r	.	8a 8A/	.
16c#\JJ	16cc#\JJ	.	.	.	.
!LO:LB:g=original	!LO:LB:g=original	!	!	!	!
=339	=339	=339	=339	=339	=339
16cn\LL	16ccn\LL	8GG/	.	8r	.
16A-X\	16a-X\	.	.	.	.
16fn\	16ffn\	8r	.	8a-X 8A-X/	.
16c\JJ	16cc\JJ	.	.	.	.
16B\LL	16b\LL	8GG/	.	8r	.
16G\	16g\	.	.	.	.
16e\	16ee\	8r	.	8g 8G/	.
16B\JJ	16b\JJ	.	.	.	.
!	!	!LO:LB:g=original	!	!LO:LB:g=original	!
=340	=340	=340	=340	=340	=340
16A#X\LL	16a#X\LL	8GG'/L	.	8r	.
16F#\	16f#\	.	.	.	.
16d#X\	16dd#X\	8F#'/J	.	8f#/	.
16A#\JJ	16a#\JJ	.	.	.	.
16An\LL	16an\LL	8GG'/L	.	8r	.
16Fn\	16fn\	.	.	.	.
16dn\	16ddn\	8Fn'/J	.	8fn/	.
16A\JJ	16a\JJ	.	.	.	.
=341	=341	=341	=341	=341	=341
16G#X\LL	16g#X\LL	8GG/L	.	8r	.
16E\	16e\	.	.	.	.
16c#X\	16cc#X\	8E/J	.	8e/	.
16G#\JJ	16g#\JJ	.	.	.	.
16Gn\LL	16gn\LL	8GG/L	.	8r	.
16E-X\	16e-X\	.	.	.	.
16cn\	16ccn\	8E-X/J	.	8e-X/	.
16G\JJ	16g\JJ	.	.	.	.
=342	=342	=342	=342	=342	=342
16B-XLL 16DD\	16b-X\LL	8G\	.	8g/	.
16e-X\	16ee-X\	.	.	.	.
16G\	16g\	8r	.	8r	.
16B-\JJ	16b-\JJ	.	.	.	.
16A\LL	16a\LL	8F#\	.	8f#/	.
16d\	16dd\	.	.	.	.
16F#\	16f#\	8r	.	8r	.
16A\JJ	16a\JJ	.	.	.	.
=343	=343	=343	=343	=343	=343
16G#X\LL	16g#X\LL	8E#X\	.	8e#X/	.
16c#X\	16cc#X\	.	.	.	.
16E#X\	16e#X\	8r	.	8r	.
16G#\JJ	16g#\JJ	.	.	.	.
16Gn\LL	16gn\LL	8En\	.	8en/	.
16cn\	16ccn\	.	.	.	.
16En\	16en\	8r	.	8r	.
16G\JJ	16g\JJ	.	.	.	.
!LO:LB:g=original	!LO:LB:g=original	!	!	!	!
=344	=344	=344	=344	=344	=344
16F#\LL	16f#/LL	8D#X\	.	8d#X/	.
16B\	16b/	.	.	.	.
16D#X\	16d#X/	8r	.	8r	.
16F#\JJ	16f#/JJ	.	.	.	.
16Fn\LL	16fn/LL	8Dn 8DDn/	.	8dn/	.
16B-X\	16b-X/	.	.	.	.
16Dn\	16dn/	8r	.	8r	.
16F\JJ	16f/JJ	.	.	.	.
=345	=345	=345	=345	=345	=345
16E\LL	16e/LL	8C#X 8DD/	.	8c#X/	.
16A\	16a/	.	.	.	.
16C#X\	16c#X/	8r	.	8r	.
16E\JJ	16e/JJ	.	.	.	.
16E-X\LL	16e-X/LL	8Cn 8DD/	.	8cn/	.
16A-X\	16a-X/	.	.	.	.
16Cn\	16cn/	8r	.	8r	.
16E-\JJ	16e-/JJ	.	.	.	.
=346	=346	=346	=346	=346	=346
!	!	!LO:TX:a:i:t=arco.	!	!LO:TX:a:i:t=arco.	!
16BBLL 16GGG/	16B/LL	8EE-X/L	.	8G/L	.
16C/	16c/	.	.	.	.
16E/	16e-X/	8EE-/J	.	8G/J	.
16F#/JJ	16f#/JJ	.	.	.	.
!	!	!LO:TX:a:i:t=marcato	!	!	!
16BB/LL	16B/LL	4DD/	.	4G/	.
16G/	16g/	.	.	.	.
16BB/	16B/	.	.	.	.
16GG/JJ	16G/JJ	.	.	.	.
=347	=347	=347	=347	=347	=347
16E-X\LL	16e-X/LL	2CC/	.	2A-X^^/	.
16A-X\	16a-X/	.	.	.	.
16C\	16c/	.	.	.	.
16E-X\JJ	16e-/JJ	.	.	.	.
16E-\LL	16e-/LL	.	.	.	.
16A-\	16a-/	.	.	.	.
16C\	16c/	.	.	.	.
16E-\JJ	16e-/JJ	.	.	.	.
!LO:LB:g=original	!LO:LB:g=original	!LO:LB:g=original	!	!	!
=348	=348	=348	=348	=348	=348
16BBLL 16GGG/	16B/LL	8EE-X/L	.	8G/L	.
16C/	16c/	.	.	.	.
16E-X/	16e-X/	8EE-/J	.	8G/J	.
16F#/JJ	16f#/JJ	.	.	.	.
16BB/LL	16B/LL	4DD/	.	4G/	.
16G/	16g/	.	.	.	.
16BB/	16B/	.	.	.	.
16GG/JJ	16G/JJ	.	.	.	.
!	!	!	!	!LO:LB:g=original	!
=349	=349	=349	=349	=349	=349
16E-X\LL	16e-X/LL	2CC/	.	2A-X^^/	.
16A-X\	16a-X/	.	.	.	.
16C\	16c/	.	.	.	.
16E-\JJ	16e-/JJ	.	.	.	.
16E-\LL	16e-/LL	.	.	.	.
16A-\	16a-/	.	.	.	.
16C\	16c/	.	.	.	.
16E-\JJ	16e-/JJ	.	.	.	.
=350	=350	=350	=350	=350	=350
*	*	*tremolo	*	*tremolo	*
!	!	!	!	!	!LO:DY:a:t=ff.
8GGL 8GGG/	16r	16GG/LL	.	16G/LL	ff
!	!	!	!LO:DY:t=ff.	!	!
.	8gL 8G/	16GG/JJ	ff	16G/JJ	.
8AA-X 8AAA-X/	.	16AA-X/LL	.	16A-X/LL	.
.	8a-X 8A-X/	16AA-/JJ	.	16A-/JJ	.
8GG 8GGG/	.	16GG/LL	.	16G/LL	.
.	8g 8G/	16GG/JJ	.	16G/JJ	.
8BBJ 8BBB/	.	16BB/LL	.	16B/LL	.
.	16bJk 16B/	16BB/JJ	.	16B/JJ	.
=351	=351	=351	=351	=351	=351
8DL 8DD/	16r	16D\LL	.	16d/LL	.
.	8ddL 8d/	16D\JJ	.	16d/JJ	.
8E-X 8EE-X/	.	16E-X\LL	.	16e-X/LL	.
.	8ee-X 8e-X/	16E-\JJ	.	16e-/JJ	.
8D 8DD/	.	16D\LL	.	16d/LL	.
.	8dd 8d/	16D\JJ	.	16d/JJ	.
8F#J 8FF#/	.	16F#X\LL	.	16f#/LL	.
.	16ff#Jk 16f#/	16F#\JJ	.	16f#/JJ	.
=352	=352	=352	=352	=352	=352
8GL 8GG\	16r	16G\LL	.	16g/LL	.
.	8ggL 8g\	16G\JJ	.	16g/JJ	.
8A-X 8AA-X\	.	16A-X\LL	.	16a-X/LL	.
.	8aa-X 8a-X\	16A-\JJ	.	16a-/JJ	.
8G 8GG\	.	16G\LL	.	16g/LL	.
.	8gg 8g\	16G\JJ	.	16g/JJ	.
8BJ 8BB\	.	16B\LL	.	16b/LL	.
.	16bbJk 16b\	16B\JJ	.	16b/JJ	.
!LO:LB:g=original	!LO:LB:g=original	!	!	!	!
=353	=353	=353	=353	=353	=353
8dL 8D\	16r	16d\LL	.	16dd\LL	.
.	8dddL 8dd\	16d\JJ	.	16dd\JJ	.
8e-X 8E-X\	.	16e-X\LL	.	16ee-X\LL	.
.	8eee-X 8ee-X\	16e-\JJ	.	16ee-\JJ	.
8d 8D\	.	16d\LL	.	16dd\LL	.
.	8ddd 8dd\	16d\JJ	.	16dd\JJ	.
8f#J 8F#\	.	16f#\LL	.	16ff#\LL	.
.	16fff#Jk 16ff#\	16f#\JJ	.	16ff#\JJ	.
!	!	!LO:LB:g=original	!	!	!
=354	=354	=354	=354	=354	=354
!LO:TX:t=P:problem:cross-measure beam	!	!	!	!	!
8gL 8G\	16r	16g\LL	.	16gg\LL	.
!	!LO:N:vis=16	!	!	!	!
!	!LO:TX:t=P:problem:cross-measure beam	!	!	!	!
.	8gggL 8gg\	16g\JJ	.	16gg\JJ	.
8b 8B\	.	16g\LL	.	16bb\LL	.
.	8bbb 8bb\	16g\JJ	.	16bb\JJ	.
8g 8G\	.	16g\LL	.	16gg\LL	.
.	8ggg 8gg\	16g\JJ	.	16gg\JJ	.
8d 8D\	.	16d\LL	.	16dd\LL	.
.	8ddd 8dd\	16d\JJ	.	16dd\JJ	.
!	!	!	!	!LO:LB:g=original	!
=355	=355	=355	=355	=355	=355
8B 8BB\	.	16B\LL	.	16b\LL	.
.	8bb 8b\	16B\JJ	.	16b\JJ	.
8d 8D\	.	16d\LL	.	16dd\LL	.
.	8ddd 8dd\	16d\JJ	.	16dd\JJ	.
8B 8BB\	.	16B\LL	.	16b\LL	.
.	8bb 8b\	16B\JJ	.	16b\JJ	.
8G 8GG\	.	16G\LL	.	16g\LL	.
.	8gg 8g\	16G\JJ	.	16g\JJ	.
=356	=356	=356	=356	=356	=356
8D 8DD\	.	16D\LL	.	16d/LL	.
.	8dd 8d\	16D\JJ	.	16d/JJ	.
8G 8GG\	.	16G\LL	.	16g/LL	.
.	8gg 8g\	16G\JJ	.	16g/JJ	.
8D 8DD\	.	16D\LL	.	16d/LL	.
.	8dd 8d\	16D\JJ	.	16d/JJ	.
8BB 8BBB\	.	16BB\LL	.	16B/LL	.
.	8b 8B\	16BB\JJ	.	16B/JJ	.
=357	=357	=357	=357	=357	=357
8D 8DD\	.	16D\LL	.	16d/LL	.
.	8dd 8d\	16D\JJ	.	16d/JJ	.
8G 8GG\	.	16G\LL	.	16g/LL	.
.	8gg 8g\	16G\JJ	.	16g/JJ	.
8D 8DD\	.	16D\LL	.	16d/LL	.
.	8dd 8d\	16D\JJ	.	16d/JJ	.
16BBJk 16BBB\	.	16BB\LL	.	16B/LL	.
16r	16bJk 16B\	16BB\JJ	.	16B/JJ	.
*	*	*Xtremolo	*	*Xtremolo	*
!LO:LB:g=original	!LO:LB:g=original	!	!	!	!
=358	=358	=358	=358	=358	=358
4GG 4GGG\	4g 4G/	4GG/	.	4G/	.
4r	4r	4r	.	4r	.
=359	=359	=359	=359	=359	=359
2r	2r	2r	.	2r	.
*clefG2	*	*	*	*	*
=360	=360	=360	=360	=360	=360
*	*8va	*	*	*	*
!	!	!	!	!LO:TX:t=P:problem:arpeggio z prawej strony	!
4dd 4g 4B\	4bbb 4ggg 4ddd 4gg\	4B 4D 4GG\	.	4bb: 4b: 4d: 4G:/	.
*	*X8va	*	*	*	*
4r	4r	4r	.	4r	.
=361	=361	=361	=361	=361	=361
2r	2r	2r	.	2r	.
*clefF4	*	*	*	*	*
!	!	!LO:LB:g=original	!	!	!
=362	=362	=362	=362	=362	=362
4qqGG 4qqGGG/	4qqg 4qqG/	32qqGG/	.	16qqG/	.
!	!LO:TX:b:t=Fine.	!LO:TX:a:t=Fine	!	!LO:TX:a:t=Fine	!
2GG 2GGG/	2g 2G/	2GG/	.	2G/	.
==	==	==	==	==	==
*-	*-	*-	*-	*-	*-
!!!system-decoration: s1,s2{(s3,s4)}
!!!RDF**kern: > = above
!!!RDF**kern: < = below
!!!ENC: Andrzej Kubiczek
!!!END: 2021-05-22
!!!ENC: Andrzej Gręziak
!!!END: 2021-05-06
